( pcb2gcode 1.3.2 )
( Gcode for linuxcnc )

G94 ( Millimeters per minute feed rate. )
G21 ( Units == Millimeters. )

G90 ( Absolute coordinates. )
S6000 ( RPM spindle speed. )
G64 P0.01016 ( set maximum deviation from commanded toolpath )
F500.00000 ( Feedrate. )

F500.00000 ( Feedrate. )
M3 ( Spindle on clockwise. )
G04 P2.00000

o1 sub ( Main subroutine )

G04 P0 ( dwell for no time -- G64 should not smooth over this point )
G00 Z3.00000 ( retract )

G00 X-12.52580 Y40.12582 ( rapid move to begin. )
F250.00000
G01 Z-0.10000
G04 P0 ( dwell for no time -- G64 should not smooth over this point )
F500.00000
G01 X-12.52580 Y40.12582
X-12.52580 Y66.62582
X-12.53969 Y66.75241
X-12.62184 Y66.95076
X-12.70152 Y67.05010
X-17.70151 Y72.05009
X-17.80085 Y72.12977
X-17.99920 Y72.21191
X-18.12579 Y72.22581
X-30.88578 Y72.22581
X-31.01233 Y72.21191
X-31.21065 Y72.12977
X-31.31002 Y72.05009
X-44.50438 Y58.85575
X-45.92012 Y58.85580
X-46.07846 Y58.92390
X-46.27564 Y58.96358
X-46.46637 Y58.96304
X-46.65309 Y58.92390
X-46.84702 Y58.83937
X-47.01720 Y58.71369
X-47.14445 Y58.57158
X-47.24029 Y58.40663
X-47.30721 Y58.20592
X-47.32771 Y57.99538
X-47.30721 Y57.80574
X-47.24879 Y57.62413
X-47.13785 Y57.43196
X-47.00168 Y57.28400
X-46.84702 Y57.17229
X-46.65309 Y57.08776
X-46.45593 Y57.04806
X-46.25484 Y57.05027
X-46.07846 Y57.08776
X-45.92015 Y57.15583
X-44.85782 Y57.15583
X-44.21578 Y56.51380
X-44.21578 Y17.54021
X-44.25965 Y17.44611
X-44.30278 Y17.27961
X-44.31454 Y17.08787
X-44.28240 Y16.87809
X-44.22269 Y16.71680
X-44.12277 Y16.55266
X-43.99191 Y16.41200
X-43.83542 Y16.30057
X-43.64034 Y16.21687
X-43.47189 Y16.18225
X-43.35566 Y16.17636
X-43.16475 Y16.19785
X-43.00067 Y16.24931
X-42.81510 Y16.35231
X-42.67065 Y16.47900
X-42.56536 Y16.61499
X-42.47192 Y16.80555
X-42.42879 Y16.97204
X-42.41703 Y17.16379
X-42.44411 Y17.35401
X-42.51581 Y17.54895
X-42.51581 Y56.86582
X-42.53067 Y57.02195
X-42.57718 Y57.18187
X-42.66488 Y57.34595
X-42.76475 Y57.46686
X-43.48048 Y58.18258
X-30.63727 Y71.02581
X-18.37428 Y71.02581
X-13.72580 Y66.37733
X-13.72580 Y40.37436
X-14.37431 Y39.72584
X-16.67581 Y39.72582
X-16.67771 Y39.99534
X-16.70509 Y40.04652
X-16.75627 Y40.07390
X-18.51403 Y40.06821
X-18.55891 Y40.03138
X-18.57578 Y39.97581
X-18.56816 Y38.23758
X-18.53133 Y38.19270
X-18.47578 Y38.17584
X-16.77581 Y38.17584
X-16.72023 Y38.19270
X-16.67771 Y38.25633
X-16.67581 Y38.52582
X-14.12580 Y38.52582
X-14.01841 Y38.53596
X-13.90540 Y38.56821
X-13.80086 Y38.62191
X-13.70152 Y38.70159
X-12.69491 Y39.70885
X-12.62184 Y39.80095
X-12.56814 Y39.90550
X-12.53586 Y40.01850
X-12.52580 Y40.12582
G04 P0 ( dwell for no time -- G64 should not smooth over this point )
G00 Z3.00000 ( retract )

G00 X-16.67702 Y41.70379 ( rapid move to begin. )
F250.00000
G01 Z-0.10000
G04 P0 ( dwell for no time -- G64 should not smooth over this point )
F500.00000
G01 X-16.67702 Y41.70379
X-16.70410 Y41.89401
X-16.76887 Y42.07486
X-16.86879 Y42.23900
X-16.99966 Y42.37966
X-17.15614 Y42.49109
X-17.33191 Y42.56874
X-17.51967 Y42.60941
X-17.63590 Y42.61530
X-17.82681 Y42.59381
X-18.00948 Y42.53437
X-18.17646 Y42.43935
X-18.32091 Y42.31266
X-18.43689 Y42.15947
X-18.51964 Y41.98611
X-18.56277 Y41.81962
X-18.57453 Y41.62787
X-18.54746 Y41.43765
X-18.48269 Y41.25680
X-18.38276 Y41.09267
X-18.25190 Y40.95200
X-18.09541 Y40.84057
X-17.91964 Y40.76293
X-17.73189 Y40.72226
X-17.61566 Y40.71637
X-17.42475 Y40.73786
X-17.24207 Y40.79729
X-17.07509 Y40.89231
X-16.93064 Y41.01901
X-16.81467 Y41.17220
X-16.73191 Y41.34555
X-16.68878 Y41.51205
X-16.67702 Y41.70379
G04 P0 ( dwell for no time -- G64 should not smooth over this point )
G00 Z3.00000 ( retract )

G00 X-16.67702 Y44.24379 ( rapid move to begin. )
F250.00000
G01 Z-0.10000
G04 P0 ( dwell for no time -- G64 should not smooth over this point )
F500.00000
G01 X-16.67702 Y44.24379
X-16.70410 Y44.43401
X-16.76887 Y44.61486
X-16.88116 Y44.79500
X-17.01500 Y44.93284
X-17.17385 Y45.04092
X-17.35122 Y45.11479
X-17.53473 Y45.15131
X-17.80699 Y45.13787
X-17.99089 Y45.08235
X-18.17646 Y44.97935
X-18.35713 Y44.80582
X-23.89146 Y44.80582
X-24.01501 Y44.93284
X-24.17386 Y45.04092
X-24.35123 Y45.11479
X-24.62072 Y45.15568
X-24.82682 Y45.13381
X-25.00949 Y45.07437
X-25.17647 Y44.97935
X-25.35717 Y44.80582
X-25.95722 Y44.80584
X-29.42150 Y48.27010
X-29.50453 Y48.33888
X-29.60728 Y48.39598
X-29.71919 Y48.43192
X-29.83598 Y48.44536
X-30.37893 Y48.44584
X-30.48142 Y48.56080
X-30.63575 Y48.67366
X-30.81858 Y48.75745
X-31.02518 Y48.80304
X-31.22637 Y48.80304
X-31.41309 Y48.76390
X-31.59770 Y48.68412
X-31.77720 Y48.55369
X-31.90445 Y48.41158
X-32.00029 Y48.24663
X-32.06721 Y48.04592
X-32.08827 Y47.84582
X-32.06887 Y47.65608
X-32.00029 Y47.44503
X-31.90445 Y47.28008
X-31.77720 Y47.13797
X-31.60702 Y47.01229
X-31.43298 Y46.93421
X-31.21593 Y46.88806
X-31.02518 Y46.88862
X-30.83846 Y46.92776
X-30.63575 Y47.01801
X-30.48142 Y47.13088
X-30.37895 Y47.24582
X-30.09427 Y47.24582
X-26.63001 Y43.78159
X-26.53068 Y43.70191
X-26.33233 Y43.61977
X-26.20578 Y43.60582
X-25.36012 Y43.60582
X-25.23657 Y43.47882
X-25.07772 Y43.37074
X-24.90035 Y43.29688
X-24.63086 Y43.25599
X-24.42476 Y43.27786
X-24.24208 Y43.33729
X-24.07510 Y43.43231
X-23.89443 Y43.60582
X-18.36010 Y43.60582
X-18.23656 Y43.47882
X-18.07771 Y43.37074
X-17.90034 Y43.29688
X-17.73189 Y43.26226
X-17.61566 Y43.25637
X-17.42475 Y43.27786
X-17.24207 Y43.33729
X-17.07509 Y43.43231
X-16.93064 Y43.55901
X-16.81467 Y43.71220
X-16.73191 Y43.88555
X-16.68878 Y44.05205
X-16.67702 Y44.24379
G04 P0 ( dwell for no time -- G64 should not smooth over this point )
G00 Z3.00000 ( retract )

G00 X-16.67702 Y46.78379 ( rapid move to begin. )
F250.00000
G01 Z-0.10000
G04 P0 ( dwell for no time -- G64 should not smooth over this point )
F500.00000
G01 X-16.67702 Y46.78379
X-16.70410 Y46.97401
X-16.76887 Y47.15486
X-16.88116 Y47.33500
X-17.01500 Y47.47284
X-17.17385 Y47.58092
X-17.35122 Y47.65479
X-17.53473 Y47.69131
X-17.80699 Y47.67787
X-17.99089 Y47.62235
X-18.17646 Y47.51935
X-18.35713 Y47.34582
X-23.89146 Y47.34582
X-24.01501 Y47.47284
X-24.17386 Y47.58092
X-24.35123 Y47.65479
X-24.51968 Y47.68941
X-24.63591 Y47.69530
X-24.82682 Y47.67381
X-24.99090 Y47.62235
X-25.17647 Y47.51935
X-25.35717 Y47.34582
X-25.49723 Y47.34584
X-28.96151 Y50.81010
X-29.04454 Y50.87888
X-29.14728 Y50.93598
X-29.25919 Y50.97192
X-29.38579 Y50.98582
X-30.37893 Y50.98584
X-30.48142 Y51.10080
X-30.63575 Y51.21366
X-30.81858 Y51.29745
X-31.02518 Y51.34304
X-31.22637 Y51.34304
X-31.41309 Y51.30390
X-31.59770 Y51.22412
X-31.77720 Y51.09369
X-31.90445 Y50.95158
X-32.00029 Y50.78663
X-32.06721 Y50.58592
X-32.08827 Y50.38582
X-32.06887 Y50.19608
X-32.00029 Y49.98503
X-31.90445 Y49.82008
X-31.77720 Y49.67797
X-31.60702 Y49.55229
X-31.43298 Y49.47421
X-31.21593 Y49.42806
X-31.02518 Y49.42862
X-30.83846 Y49.46776
X-30.63575 Y49.55801
X-30.48142 Y49.67088
X-30.37895 Y49.78582
X-29.63428 Y49.78582
X-26.16276 Y46.31499
X-25.98424 Y46.19571
X-25.87233 Y46.15977
X-25.74579 Y46.14582
X-25.36012 Y46.14582
X-25.23657 Y46.01882
X-25.09542 Y45.92057
X-24.90035 Y45.83688
X-24.63086 Y45.79599
X-24.42476 Y45.81786
X-24.24208 Y45.87729
X-24.09172 Y45.96076
X-23.94460 Y46.08435
X-23.89443 Y46.14582
X-18.36010 Y46.14582
X-18.23656 Y46.01882
X-18.09541 Y45.92057
X-17.91964 Y45.84293
X-17.71682 Y45.80036
X-17.44456 Y45.81379
X-17.24207 Y45.87729
X-17.07509 Y45.97231
X-16.93064 Y46.09901
X-16.81467 Y46.25220
X-16.73191 Y46.42555
X-16.68878 Y46.59205
X-16.67702 Y46.78379
G04 P0 ( dwell for no time -- G64 should not smooth over this point )
G00 Z3.00000 ( retract )

G00 X-16.67702 Y49.32379 ( rapid move to begin. )
F250.00000
G01 Z-0.10000
G04 P0 ( dwell for no time -- G64 should not smooth over this point )
F500.00000
G01 X-16.67702 Y49.32379
X-16.70410 Y49.51401
X-16.76887 Y49.69486
X-16.86879 Y49.85900
X-16.99966 Y49.99966
X-17.15614 Y50.11109
X-17.33191 Y50.18874
X-17.51967 Y50.22941
X-17.63590 Y50.23530
X-17.82681 Y50.21381
X-18.00948 Y50.15437
X-18.17646 Y50.05935
X-18.32091 Y49.93266
X-18.43689 Y49.77947
X-18.51964 Y49.60611
X-18.56277 Y49.43962
X-18.57453 Y49.24787
X-18.54746 Y49.05765
X-18.48269 Y48.87680
X-18.38276 Y48.71267
X-18.25190 Y48.57200
X-18.09541 Y48.46057
X-17.91964 Y48.38293
X-17.73189 Y48.34226
X-17.61566 Y48.33637
X-17.42475 Y48.35786
X-17.24207 Y48.41729
X-17.07509 Y48.51231
X-16.93064 Y48.63901
X-16.81467 Y48.79220
X-16.73191 Y48.96555
X-16.68878 Y49.13205
X-16.67702 Y49.32379
G04 P0 ( dwell for no time -- G64 should not smooth over this point )
G00 Z3.00000 ( retract )

G00 X-16.67702 Y51.86379 ( rapid move to begin. )
F250.00000
G01 Z-0.10000
G04 P0 ( dwell for no time -- G64 should not smooth over this point )
F500.00000
G01 X-16.67702 Y51.86379
X-16.70410 Y52.05401
X-16.76887 Y52.23486
X-16.86879 Y52.39900
X-16.99966 Y52.53966
X-17.15614 Y52.65109
X-17.33191 Y52.72874
X-17.51967 Y52.76941
X-17.63590 Y52.77530
X-17.82681 Y52.75381
X-18.00948 Y52.69437
X-18.17646 Y52.59935
X-18.32091 Y52.47266
X-18.43689 Y52.31947
X-18.51964 Y52.14611
X-18.56277 Y51.97962
X-18.57453 Y51.78787
X-18.54746 Y51.59765
X-18.48269 Y51.41680
X-18.38276 Y51.25267
X-18.25190 Y51.11200
X-18.09541 Y51.00057
X-17.91964 Y50.92293
X-17.73189 Y50.88226
X-17.61566 Y50.87637
X-17.42475 Y50.89786
X-17.24207 Y50.95729
X-17.07509 Y51.05231
X-16.93064 Y51.17901
X-16.81467 Y51.33220
X-16.73191 Y51.50555
X-16.68878 Y51.67205
X-16.67702 Y51.86379
G04 P0 ( dwell for no time -- G64 should not smooth over this point )
G00 Z3.00000 ( retract )

G00 X-16.67702 Y54.40379 ( rapid move to begin. )
F250.00000
G01 Z-0.10000
G04 P0 ( dwell for no time -- G64 should not smooth over this point )
F500.00000
G01 X-16.67702 Y54.40379
X-16.70410 Y54.59401
X-16.76887 Y54.77486
X-16.86879 Y54.93900
X-16.99966 Y55.07966
X-17.15614 Y55.19109
X-17.33191 Y55.26874
X-17.51967 Y55.30941
X-17.63590 Y55.31530
X-17.82681 Y55.29381
X-18.00948 Y55.23437
X-18.17646 Y55.13935
X-18.32091 Y55.01266
X-18.43689 Y54.85947
X-18.51964 Y54.68611
X-18.56277 Y54.51962
X-18.57453 Y54.32787
X-18.54746 Y54.13765
X-18.48269 Y53.95680
X-18.38276 Y53.79267
X-18.25190 Y53.65200
X-18.09541 Y53.54057
X-17.91964 Y53.46293
X-17.73189 Y53.42226
X-17.61566 Y53.41637
X-17.42475 Y53.43786
X-17.24207 Y53.49729
X-17.07509 Y53.59231
X-16.93064 Y53.71901
X-16.81467 Y53.87220
X-16.73191 Y54.04555
X-16.68878 Y54.21205
X-16.67702 Y54.40379
G04 P0 ( dwell for no time -- G64 should not smooth over this point )
G00 Z3.00000 ( retract )

G00 X-16.67702 Y56.94379 ( rapid move to begin. )
F250.00000
G01 Z-0.10000
G04 P0 ( dwell for no time -- G64 should not smooth over this point )
F500.00000
G01 X-16.67702 Y56.94379
X-16.70410 Y57.13401
X-16.76887 Y57.31486
X-16.86879 Y57.47900
X-16.99966 Y57.61966
X-17.15614 Y57.73109
X-17.33191 Y57.80874
X-17.51967 Y57.84941
X-17.63590 Y57.85530
X-17.82681 Y57.83381
X-18.00948 Y57.77437
X-18.17646 Y57.67935
X-18.32091 Y57.55266
X-18.43689 Y57.39947
X-18.51964 Y57.22611
X-18.56277 Y57.05962
X-18.57453 Y56.86787
X-18.54746 Y56.67765
X-18.48269 Y56.49680
X-18.38276 Y56.33267
X-18.25190 Y56.19200
X-18.09541 Y56.08057
X-17.91964 Y56.00293
X-17.73189 Y55.96226
X-17.61566 Y55.95637
X-17.42475 Y55.97786
X-17.24207 Y56.03729
X-17.07509 Y56.13231
X-16.93064 Y56.25901
X-16.81467 Y56.41220
X-16.73191 Y56.58555
X-16.68878 Y56.75205
X-16.67702 Y56.94379
G04 P0 ( dwell for no time -- G64 should not smooth over this point )
G00 Z3.00000 ( retract )

G00 X-20.17580 Y62.27581 ( rapid move to begin. )
F250.00000
G01 Z-0.10000
G04 P0 ( dwell for no time -- G64 should not smooth over this point )
F500.00000
G01 X-20.17580 Y62.27581
X-20.17580 Y63.97578
X-20.20508 Y64.04650
X-20.27580 Y64.07578
X-21.97577 Y64.07578
X-22.04646 Y64.04650
X-22.07577 Y63.97578
X-22.07577 Y62.27581
X-22.04646 Y62.20512
X-21.97577 Y62.17581
X-20.27580 Y62.17581
X-20.20508 Y62.20512
X-20.17580 Y62.27581
G04 P0 ( dwell for no time -- G64 should not smooth over this point )
G00 Z3.00000 ( retract )

G00 X-20.17580 Y66.27583 ( rapid move to begin. )
F250.00000
G01 Z-0.10000
G04 P0 ( dwell for no time -- G64 should not smooth over this point )
F500.00000
G01 X-20.17580 Y66.27583
X-20.17580 Y67.97580
X-20.20508 Y68.04651
X-20.27580 Y68.07580
X-21.97577 Y68.07580
X-22.04646 Y68.04651
X-22.07577 Y67.97580
X-22.07577 Y66.27583
X-22.04646 Y66.20514
X-21.97577 Y66.17583
X-20.27580 Y66.17583
X-20.20508 Y66.20514
X-20.17580 Y66.27583
G04 P0 ( dwell for no time -- G64 should not smooth over this point )
G00 Z3.00000 ( retract )

G00 X-22.71702 Y67.16379 ( rapid move to begin. )
F250.00000
G01 Z-0.10000
G04 P0 ( dwell for no time -- G64 should not smooth over this point )
F500.00000
G01 X-22.71702 Y67.16379
X-22.74409 Y67.35401
X-22.80886 Y67.53486
X-22.90879 Y67.69899
X-23.03965 Y67.83966
X-23.19614 Y67.95109
X-23.37191 Y68.02873
X-23.55966 Y68.06940
X-23.67589 Y68.07529
X-23.86680 Y68.05380
X-24.04948 Y67.99437
X-24.21646 Y67.89935
X-24.36091 Y67.77265
X-24.47688 Y67.61946
X-24.55964 Y67.44611
X-24.60276 Y67.27961
X-24.61452 Y67.08787
X-24.58745 Y66.89765
X-24.52268 Y66.71680
X-24.42275 Y66.55266
X-24.29189 Y66.41200
X-24.13540 Y66.30057
X-23.95964 Y66.22292
X-23.77188 Y66.18226
X-23.65565 Y66.17636
X-23.46474 Y66.19785
X-23.28207 Y66.25729
X-23.11509 Y66.35231
X-22.97064 Y66.47900
X-22.85466 Y66.63219
X-22.77191 Y66.80555
X-22.72878 Y66.97204
X-22.71702 Y67.16379
G04 P0 ( dwell for no time -- G64 should not smooth over this point )
G00 Z3.00000 ( retract )

G00 X-25.25702 Y67.16379 ( rapid move to begin. )
F250.00000
G01 Z-0.10000
G04 P0 ( dwell for no time -- G64 should not smooth over this point )
F500.00000
G01 X-25.25702 Y67.16379
X-25.28409 Y67.35401
X-25.34886 Y67.53486
X-25.46116 Y67.71499
X-25.59499 Y67.85284
X-25.75384 Y67.96092
X-25.93121 Y68.03478
X-26.11472 Y68.07131
X-26.38699 Y68.05787
X-26.57088 Y68.00234
X-26.75646 Y67.89935
X-26.93713 Y67.72581
X-29.62579 Y67.72581
X-29.73311 Y67.71576
X-29.84611 Y67.68347
X-29.95066 Y67.62978
X-30.05002 Y67.55010
X-31.01182 Y66.58830
X-31.98827 Y66.58830
X-32.02652 Y66.58071
X-32.07141 Y66.54388
X-32.08827 Y66.48830
X-32.08065 Y64.72508
X-32.04382 Y64.68020
X-31.98827 Y64.66334
X-30.26331 Y64.66334
X-30.20773 Y64.68020
X-30.17090 Y64.72508
X-30.16331 Y64.76334
X-30.16331 Y65.73979
X-29.37725 Y66.52584
X-26.94010 Y66.52584
X-26.81655 Y66.39882
X-26.67540 Y66.30057
X-26.49964 Y66.22292
X-26.29682 Y66.18035
X-26.02455 Y66.19379
X-25.82207 Y66.25729
X-25.65509 Y66.35231
X-25.51064 Y66.47900
X-25.39466 Y66.63219
X-25.31191 Y66.80555
X-25.26878 Y66.97204
X-25.25702 Y67.16379
G04 P0 ( dwell for no time -- G64 should not smooth over this point )
G00 Z3.00000 ( retract )

G00 X-22.71702 Y63.16377 ( rapid move to begin. )
F250.00000
G01 Z-0.10000
G04 P0 ( dwell for no time -- G64 should not smooth over this point )
F500.00000
G01 X-22.71702 Y63.16377
X-22.74409 Y63.35399
X-22.80886 Y63.53484
X-22.90879 Y63.69897
X-23.03965 Y63.83964
X-23.19614 Y63.95107
X-23.37191 Y64.02872
X-23.55966 Y64.06938
X-23.67589 Y64.07528
X-23.86680 Y64.05379
X-24.04948 Y63.99435
X-24.21646 Y63.89933
X-24.36091 Y63.77263
X-24.47688 Y63.61945
X-24.55964 Y63.44609
X-24.60276 Y63.27960
X-24.61452 Y63.08785
X-24.58745 Y62.89763
X-24.52268 Y62.71678
X-24.42275 Y62.55265
X-24.29189 Y62.41198
X-24.13540 Y62.30055
X-23.95964 Y62.22290
X-23.77188 Y62.18224
X-23.65565 Y62.17635
X-23.46474 Y62.19783
X-23.28207 Y62.25727
X-23.11509 Y62.35229
X-22.97064 Y62.47899
X-22.85466 Y62.63217
X-22.77191 Y62.80553
X-22.72878 Y62.97203
X-22.71702 Y63.16377
G04 P0 ( dwell for no time -- G64 should not smooth over this point )
G00 Z3.00000 ( retract )

G00 X-25.25702 Y63.16377 ( rapid move to begin. )
F250.00000
G01 Z-0.10000
G04 P0 ( dwell for no time -- G64 should not smooth over this point )
F500.00000
G01 X-25.25702 Y63.16377
X-25.28409 Y63.35399
X-25.34886 Y63.53484
X-25.46116 Y63.71498
X-25.59499 Y63.85282
X-25.75384 Y63.96090
X-25.91191 Y64.02872
X-26.09966 Y64.06938
X-26.21589 Y64.07528
X-26.38699 Y64.05785
X-26.57088 Y64.00233
X-26.75646 Y63.89933
X-26.93713 Y63.72580
X-30.41322 Y63.72582
X-30.48987 Y63.80766
X-30.63575 Y63.91366
X-30.81858 Y63.99745
X-31.02518 Y64.04304
X-31.21593 Y64.04358
X-31.41309 Y64.00390
X-31.59770 Y63.92412
X-31.77720 Y63.79369
X-31.90445 Y63.65158
X-32.00879 Y63.46753
X-32.06721 Y63.28592
X-32.08827 Y63.08582
X-32.06721 Y62.88574
X-32.00879 Y62.70413
X-31.89785 Y62.51196
X-31.76168 Y62.36400
X-31.60702 Y62.25229
X-31.43298 Y62.17421
X-31.22637 Y62.12862
X-31.01484 Y62.13027
X-30.81858 Y62.17421
X-30.65386 Y62.24754
X-30.48987 Y62.36400
X-30.34339 Y62.52580
X-26.94010 Y62.52582
X-26.81655 Y62.39880
X-26.65770 Y62.29072
X-26.48033 Y62.21686
X-26.21084 Y62.17597
X-26.02455 Y62.19377
X-25.84066 Y62.24929
X-25.67170 Y62.34073
X-25.52458 Y62.46433
X-25.40535 Y62.61498
X-25.31894 Y62.78658
X-25.26878 Y62.97203
X-25.25702 Y63.16377
G04 P0 ( dwell for no time -- G64 should not smooth over this point )
G00 Z3.00000 ( retract )

G00 X-30.16331 Y60.54582 ( rapid move to begin. )
F250.00000
G01 Z-0.10000
G04 P0 ( dwell for no time -- G64 should not smooth over this point )
F500.00000
G01 X-30.16331 Y60.54582
X-30.18434 Y60.34574
X-30.24276 Y60.16413
X-30.34710 Y59.98008
X-30.47436 Y59.83797
X-30.65386 Y59.70754
X-30.83846 Y59.62776
X-31.03564 Y59.58806
X-31.22637 Y59.58862
X-31.43298 Y59.63421
X-31.60702 Y59.71229
X-31.77720 Y59.83797
X-31.90445 Y59.98008
X-32.00879 Y60.16413
X-32.06721 Y60.34574
X-32.08827 Y60.54582
X-32.06721 Y60.74592
X-32.00879 Y60.92753
X-31.90445 Y61.11158
X-31.77720 Y61.25369
X-31.59770 Y61.38412
X-31.41309 Y61.46390
X-31.21593 Y61.50358
X-31.02518 Y61.50304
X-30.81858 Y61.45745
X-30.64454 Y61.37937
X-30.47436 Y61.25369
X-30.34710 Y61.11158
X-30.24276 Y60.92753
X-30.18434 Y60.74592
X-30.16331 Y60.54582
G04 P0 ( dwell for no time -- G64 should not smooth over this point )
G00 Z3.00000 ( retract )

G00 X-30.16331 Y58.00582 ( rapid move to begin. )
F250.00000
G01 Z-0.10000
G04 P0 ( dwell for no time -- G64 should not smooth over this point )
F500.00000
G01 X-30.16331 Y58.00582
X-30.18434 Y57.80574
X-30.24276 Y57.62413
X-30.34710 Y57.44008
X-30.47436 Y57.29797
X-30.65386 Y57.16754
X-30.83846 Y57.08776
X-31.03564 Y57.04806
X-31.22637 Y57.04862
X-31.43298 Y57.09421
X-31.60702 Y57.17229
X-31.77720 Y57.29797
X-31.90445 Y57.44008
X-32.00879 Y57.62413
X-32.06721 Y57.80574
X-32.08827 Y58.00582
X-32.06721 Y58.20592
X-32.00879 Y58.38753
X-31.90445 Y58.57158
X-31.77720 Y58.71369
X-31.59770 Y58.84412
X-31.41309 Y58.92390
X-31.21593 Y58.96358
X-31.02518 Y58.96304
X-30.81858 Y58.91745
X-30.64454 Y58.83937
X-30.47436 Y58.71369
X-30.34710 Y58.57158
X-30.24276 Y58.38753
X-30.18434 Y58.20592
X-30.16331 Y58.00582
G04 P0 ( dwell for no time -- G64 should not smooth over this point )
G00 Z3.00000 ( retract )

G00 X-30.16331 Y55.46582 ( rapid move to begin. )
F250.00000
G01 Z-0.10000
G04 P0 ( dwell for no time -- G64 should not smooth over this point )
F500.00000
G01 X-30.16331 Y55.46582
X-30.18434 Y55.26574
X-30.24276 Y55.08413
X-30.34710 Y54.90008
X-30.47436 Y54.75797
X-30.65386 Y54.62754
X-30.83846 Y54.54776
X-31.03564 Y54.50806
X-31.22637 Y54.50862
X-31.43298 Y54.55421
X-31.60702 Y54.63229
X-31.77720 Y54.75797
X-31.90445 Y54.90008
X-32.00879 Y55.08413
X-32.06721 Y55.26574
X-32.08827 Y55.46582
X-32.06721 Y55.66592
X-32.00879 Y55.84753
X-31.90445 Y56.03158
X-31.77720 Y56.17369
X-31.59770 Y56.30412
X-31.41309 Y56.38390
X-31.21593 Y56.42358
X-31.02518 Y56.42304
X-30.81858 Y56.37745
X-30.64454 Y56.29937
X-30.47436 Y56.17369
X-30.34710 Y56.03158
X-30.24276 Y55.84753
X-30.18434 Y55.66592
X-30.16331 Y55.46582
G04 P0 ( dwell for no time -- G64 should not smooth over this point )
G00 Z3.00000 ( retract )

G00 X-30.16331 Y52.92582 ( rapid move to begin. )
F250.00000
G01 Z-0.10000
G04 P0 ( dwell for no time -- G64 should not smooth over this point )
F500.00000
G01 X-30.16331 Y52.92582
X-30.18434 Y52.72574
X-30.24276 Y52.54413
X-30.34710 Y52.36008
X-30.47436 Y52.21797
X-30.65386 Y52.08754
X-30.83846 Y52.00776
X-31.03564 Y51.96806
X-31.22637 Y51.96862
X-31.43298 Y52.01421
X-31.60702 Y52.09229
X-31.77720 Y52.21797
X-31.90445 Y52.36008
X-32.00879 Y52.54413
X-32.06721 Y52.72574
X-32.08827 Y52.92582
X-32.06721 Y53.12592
X-32.00879 Y53.30753
X-31.90445 Y53.49158
X-31.77720 Y53.63369
X-31.59770 Y53.76412
X-31.41309 Y53.84390
X-31.21593 Y53.88358
X-31.02518 Y53.88304
X-30.81858 Y53.83745
X-30.64454 Y53.75937
X-30.47436 Y53.63369
X-30.34710 Y53.49158
X-30.24276 Y53.30753
X-30.18434 Y53.12592
X-30.16331 Y52.92582
G04 P0 ( dwell for no time -- G64 should not smooth over this point )
G00 Z3.00000 ( retract )

G00 X-23.67704 Y51.86379 ( rapid move to begin. )
F250.00000
G01 Z-0.10000
G04 P0 ( dwell for no time -- G64 should not smooth over this point )
F500.00000
G01 X-23.67704 Y51.86379
X-23.70411 Y52.05401
X-23.76888 Y52.23486
X-23.86881 Y52.39900
X-23.99967 Y52.53966
X-24.15616 Y52.65109
X-24.33192 Y52.72874
X-24.51968 Y52.76941
X-24.63591 Y52.77530
X-24.82682 Y52.75381
X-25.00949 Y52.69437
X-25.17647 Y52.59935
X-25.32092 Y52.47266
X-25.43690 Y52.31947
X-25.51965 Y52.14611
X-25.56278 Y51.97962
X-25.57454 Y51.78787
X-25.54747 Y51.59765
X-25.48270 Y51.41680
X-25.38277 Y51.25267
X-25.25191 Y51.11200
X-25.09542 Y51.00057
X-24.91965 Y50.92293
X-24.73190 Y50.88226
X-24.61567 Y50.87637
X-24.42476 Y50.89786
X-24.24208 Y50.95729
X-24.07510 Y51.05231
X-23.93065 Y51.17901
X-23.81468 Y51.33220
X-23.73193 Y51.50555
X-23.68880 Y51.67205
X-23.67704 Y51.86379
G04 P0 ( dwell for no time -- G64 should not smooth over this point )
G00 Z3.00000 ( retract )

G00 X-23.67704 Y49.32379 ( rapid move to begin. )
F250.00000
G01 Z-0.10000
G04 P0 ( dwell for no time -- G64 should not smooth over this point )
F500.00000
G01 X-23.67704 Y49.32379
X-23.70411 Y49.51401
X-23.76888 Y49.69486
X-23.86881 Y49.85900
X-23.99967 Y49.99966
X-24.15616 Y50.11109
X-24.33192 Y50.18874
X-24.51968 Y50.22941
X-24.63591 Y50.23530
X-24.82682 Y50.21381
X-25.00949 Y50.15437
X-25.17647 Y50.05935
X-25.32092 Y49.93266
X-25.43690 Y49.77947
X-25.51965 Y49.60611
X-25.56278 Y49.43962
X-25.57454 Y49.24787
X-25.54747 Y49.05765
X-25.48270 Y48.87680
X-25.38277 Y48.71267
X-25.25191 Y48.57200
X-25.09542 Y48.46057
X-24.91965 Y48.38293
X-24.73190 Y48.34226
X-24.61567 Y48.33637
X-24.42476 Y48.35786
X-24.24208 Y48.41729
X-24.07510 Y48.51231
X-23.93065 Y48.63901
X-23.81468 Y48.79220
X-23.73193 Y48.96555
X-23.68880 Y49.13205
X-23.67704 Y49.32379
G04 P0 ( dwell for no time -- G64 should not smooth over this point )
G00 Z3.00000 ( retract )

G00 X-23.67704 Y41.70379 ( rapid move to begin. )
F250.00000
G01 Z-0.10000
G04 P0 ( dwell for no time -- G64 should not smooth over this point )
F500.00000
G01 X-23.67704 Y41.70379
X-23.70411 Y41.89401
X-23.76888 Y42.07486
X-23.86881 Y42.23900
X-23.99967 Y42.37966
X-24.15616 Y42.49109
X-24.33192 Y42.56874
X-24.51968 Y42.60941
X-24.63591 Y42.61530
X-24.82682 Y42.59381
X-25.00949 Y42.53437
X-25.17647 Y42.43935
X-25.32092 Y42.31266
X-25.43690 Y42.15947
X-25.51965 Y41.98611
X-25.56278 Y41.81962
X-25.57454 Y41.62787
X-25.54747 Y41.43765
X-25.48270 Y41.25680
X-25.38277 Y41.09267
X-25.25191 Y40.95200
X-25.09542 Y40.84057
X-24.91965 Y40.76293
X-24.73190 Y40.72226
X-24.61567 Y40.71637
X-24.42476 Y40.73786
X-24.24208 Y40.79729
X-24.07510 Y40.89231
X-23.93065 Y41.01901
X-23.81468 Y41.17220
X-23.73193 Y41.34555
X-23.68880 Y41.51205
X-23.67704 Y41.70379
G04 P0 ( dwell for no time -- G64 should not smooth over this point )
G00 Z3.00000 ( retract )

G00 X-23.67582 Y38.27584 ( rapid move to begin. )
F250.00000
G01 Z-0.10000
G04 P0 ( dwell for no time -- G64 should not smooth over this point )
F500.00000
G01 X-23.67582 Y38.27584
X-23.67582 Y39.97581
X-23.70510 Y40.04652
X-23.77582 Y40.07581
X-25.47579 Y40.07581
X-25.54648 Y40.04652
X-25.57579 Y39.97581
X-25.57386 Y38.25633
X-25.54648 Y38.20515
X-25.49529 Y38.17777
X-25.22580 Y38.17584
X-25.22580 Y13.37434
X-27.37431 Y11.22580
X-45.37722 Y11.22583
X-49.52578 Y15.37438
X-49.52580 Y31.37730
X-48.89725 Y32.00582
X-47.11263 Y32.00582
X-47.01014 Y31.89086
X-46.85581 Y31.77801
X-46.65309 Y31.68776
X-46.46637 Y31.64862
X-46.27564 Y31.64806
X-46.05858 Y31.69421
X-45.88454 Y31.77229
X-45.71436 Y31.89797
X-45.58710 Y32.04008
X-45.49127 Y32.20503
X-45.42269 Y32.41608
X-45.40331 Y32.60582
X-45.42434 Y32.80592
X-45.49127 Y33.00663
X-45.58710 Y33.17158
X-45.71436 Y33.31369
X-45.89386 Y33.44412
X-46.07846 Y33.52390
X-46.26518 Y33.56304
X-46.46637 Y33.56304
X-46.67298 Y33.51745
X-46.85581 Y33.43366
X-47.01014 Y33.32078
X-47.11260 Y33.20582
X-49.25311 Y33.19576
X-49.38422 Y33.15598
X-49.56276 Y33.03670
X-50.61882 Y31.96706
X-50.68341 Y31.84621
X-50.71567 Y31.73320
X-50.72580 Y31.62581
X-50.72580 Y15.12582
X-50.71186 Y14.99928
X-50.62971 Y14.80093
X-50.55003 Y14.70159
X-45.96698 Y10.13279
X-45.84613 Y10.06820
X-45.73313 Y10.03594
X-45.62579 Y10.02580
X-27.01841 Y10.03594
X-26.88729 Y10.07569
X-26.78455 Y10.13279
X-26.70152 Y10.20157
X-24.13274 Y12.78462
X-24.06815 Y12.90548
X-24.03586 Y13.01848
X-24.02580 Y13.12580
X-24.02580 Y38.17584
X-23.75628 Y38.17777
X-23.69266 Y38.22029
X-23.67582 Y38.27584
G04 P0 ( dwell for no time -- G64 should not smooth over this point )
G00 Z3.00000 ( retract )

G00 X-30.16331 Y45.30582 ( rapid move to begin. )
F250.00000
G01 Z-0.10000
G04 P0 ( dwell for no time -- G64 should not smooth over this point )
F500.00000
G01 X-30.16331 Y45.30582
X-30.18434 Y45.10574
X-30.24276 Y44.92413
X-30.35371 Y44.73196
X-30.48987 Y44.58400
X-30.64454 Y44.47229
X-30.81858 Y44.39421
X-31.01484 Y44.35027
X-31.22637 Y44.34862
X-31.43298 Y44.39421
X-31.61581 Y44.47801
X-31.77014 Y44.59086
X-31.87263 Y44.70582
X-33.69726 Y44.70585
X-40.22577 Y38.17728
X-40.22580 Y17.86033
X-40.08117 Y17.71499
X-39.97782 Y17.55304
X-39.90916 Y17.37357
X-39.87703 Y17.16379
X-39.88879 Y16.97204
X-39.93192 Y16.80555
X-40.01467 Y16.63219
X-40.13065 Y16.47900
X-40.27510 Y16.35231
X-40.44208 Y16.25729
X-40.64457 Y16.19379
X-40.91683 Y16.18035
X-41.11965 Y16.22292
X-41.27771 Y16.29074
X-41.43656 Y16.39882
X-41.58277 Y16.55266
X-41.68269 Y16.71680
X-41.74240 Y16.87809
X-41.77454 Y17.08787
X-41.76278 Y17.27961
X-41.71261 Y17.46506
X-41.62620 Y17.63666
X-41.52092 Y17.77265
X-41.42579 Y17.85700
X-41.42579 Y38.42580
X-41.41566 Y38.53319
X-41.38340 Y38.64619
X-41.32971 Y38.75074
X-41.25003 Y38.85008
X-34.37003 Y45.73010
X-34.27066 Y45.80978
X-34.07234 Y45.89192
X-33.94580 Y45.90582
X-31.87260 Y45.90582
X-31.77014 Y46.02078
X-31.61581 Y46.13366
X-31.43298 Y46.21745
X-31.22637 Y46.26304
X-31.02518 Y46.26304
X-30.81858 Y46.21745
X-30.64454 Y46.13937
X-30.48987 Y46.02766
X-30.35371 Y45.87971
X-30.24276 Y45.68753
X-30.18434 Y45.50592
X-30.16331 Y45.30582
G04 P0 ( dwell for no time -- G64 should not smooth over this point )
G00 Z3.00000 ( retract )

G00 X-30.16331 Y42.76582 ( rapid move to begin. )
F250.00000
G01 Z-0.10000
G04 P0 ( dwell for no time -- G64 should not smooth over this point )
F500.00000
G01 X-30.16331 Y42.76582
X-30.18434 Y42.56574
X-30.24276 Y42.38413
X-30.34710 Y42.20008
X-30.47436 Y42.05797
X-30.65386 Y41.92754
X-30.83846 Y41.84776
X-31.03564 Y41.80806
X-31.22637 Y41.80862
X-31.43298 Y41.85421
X-31.60702 Y41.93229
X-31.77720 Y42.05797
X-31.90445 Y42.20008
X-32.00879 Y42.38413
X-32.06721 Y42.56574
X-32.08827 Y42.76582
X-32.06721 Y42.96592
X-32.00879 Y43.14753
X-31.90445 Y43.33158
X-31.77720 Y43.47369
X-31.59770 Y43.60412
X-31.41309 Y43.68390
X-31.21593 Y43.72358
X-31.02518 Y43.72304
X-30.81858 Y43.67745
X-30.64454 Y43.59937
X-30.47436 Y43.47369
X-30.34710 Y43.33158
X-30.24276 Y43.14753
X-30.18434 Y42.96592
X-30.16331 Y42.76582
G04 P0 ( dwell for no time -- G64 should not smooth over this point )
G00 Z3.00000 ( retract )

G00 X-30.16331 Y40.22582 ( rapid move to begin. )
F250.00000
G01 Z-0.10000
G04 P0 ( dwell for no time -- G64 should not smooth over this point )
F500.00000
G01 X-30.16331 Y40.22582
X-30.18434 Y40.02574
X-30.24276 Y39.84413
X-30.35371 Y39.65196
X-30.48987 Y39.50400
X-30.64454 Y39.39229
X-30.81858 Y39.31421
X-31.02518 Y39.26862
X-31.22637 Y39.26862
X-31.43298 Y39.31421
X-31.61581 Y39.39801
X-31.77014 Y39.51086
X-31.87263 Y39.62582
X-34.27724 Y39.62585
X-37.68580 Y36.21729
X-37.68580 Y17.86033
X-37.54117 Y17.71499
X-37.43782 Y17.55304
X-37.36916 Y17.37357
X-37.33703 Y17.16379
X-37.34879 Y16.97204
X-37.39192 Y16.80555
X-37.47467 Y16.63219
X-37.59065 Y16.47900
X-37.73510 Y16.35231
X-37.90208 Y16.25729
X-38.10457 Y16.19379
X-38.37683 Y16.18035
X-38.57965 Y16.22292
X-38.73771 Y16.29074
X-38.89656 Y16.39882
X-39.04277 Y16.55266
X-39.14269 Y16.71680
X-39.20240 Y16.87809
X-39.23454 Y17.08787
X-39.22278 Y17.27961
X-39.17261 Y17.46506
X-39.08620 Y17.63666
X-38.98092 Y17.77265
X-38.88579 Y17.85700
X-38.88579 Y36.46581
X-38.87566 Y36.57320
X-38.84340 Y36.68620
X-38.78971 Y36.79075
X-38.71003 Y36.89009
X-34.95001 Y40.65010
X-34.85065 Y40.72978
X-34.74610 Y40.78348
X-34.63310 Y40.81576
X-34.52578 Y40.82582
X-31.87260 Y40.82584
X-31.77014 Y40.94078
X-31.61581 Y41.05366
X-31.43298 Y41.13745
X-31.22637 Y41.18304
X-31.02518 Y41.18304
X-30.81858 Y41.13745
X-30.64454 Y41.05937
X-30.48987 Y40.94766
X-30.35371 Y40.79971
X-30.24276 Y40.60753
X-30.18434 Y40.42592
X-30.16331 Y40.22582
G04 P0 ( dwell for no time -- G64 should not smooth over this point )
G00 Z3.00000 ( retract )

G00 X-30.16331 Y37.68582 ( rapid move to begin. )
F250.00000
G01 Z-0.10000
G04 P0 ( dwell for no time -- G64 should not smooth over this point )
F500.00000
G01 X-30.16331 Y37.68582
X-30.18434 Y37.48574
X-30.24276 Y37.30413
X-30.34710 Y37.12008
X-30.47436 Y36.97797
X-30.65386 Y36.84754
X-30.83846 Y36.76776
X-31.03564 Y36.72806
X-31.22637 Y36.72862
X-31.43298 Y36.77421
X-31.60702 Y36.85229
X-31.77720 Y36.97797
X-31.90445 Y37.12008
X-32.00879 Y37.30413
X-32.06721 Y37.48574
X-32.08827 Y37.68582
X-32.06721 Y37.88592
X-32.00879 Y38.06753
X-31.90445 Y38.25158
X-31.77720 Y38.39369
X-31.59770 Y38.52412
X-31.41309 Y38.60390
X-31.21593 Y38.64358
X-31.02518 Y38.64304
X-30.81858 Y38.59745
X-30.64454 Y38.51937
X-30.47436 Y38.39369
X-30.34710 Y38.25158
X-30.24276 Y38.06753
X-30.18434 Y37.88592
X-30.16331 Y37.68582
G04 P0 ( dwell for no time -- G64 should not smooth over this point )
G00 Z3.00000 ( retract )

G00 X-30.16331 Y35.14582 ( rapid move to begin. )
F250.00000
G01 Z-0.10000
G04 P0 ( dwell for no time -- G64 should not smooth over this point )
F500.00000
G01 X-30.16331 Y35.14582
X-30.18434 Y34.94574
X-30.24276 Y34.76413
X-30.35371 Y34.57196
X-30.48987 Y34.42400
X-30.64454 Y34.31229
X-30.81858 Y34.23421
X-31.01484 Y34.19027
X-31.22637 Y34.18862
X-31.43298 Y34.23421
X-31.61581 Y34.31801
X-31.77014 Y34.43086
X-31.87263 Y34.54582
X-33.85725 Y34.54582
X-35.14580 Y33.25730
X-35.14580 Y17.86033
X-35.00117 Y17.71499
X-34.88888 Y17.53486
X-34.82916 Y17.37357
X-34.79804 Y17.18401
X-34.80574 Y16.99206
X-34.85192 Y16.80555
X-34.94536 Y16.61499
X-35.06459 Y16.46435
X-35.21171 Y16.34075
X-35.38067 Y16.24931
X-35.56457 Y16.19379
X-35.75085 Y16.17598
X-36.02034 Y16.21687
X-36.21542 Y16.30057
X-36.35656 Y16.39882
X-36.49040 Y16.53666
X-36.60269 Y16.71680
X-36.66746 Y16.89765
X-36.69454 Y17.08787
X-36.68278 Y17.27961
X-36.63261 Y17.46506
X-36.54620 Y17.63666
X-36.44092 Y17.77265
X-36.34579 Y17.85700
X-36.34579 Y33.50582
X-36.33566 Y33.61321
X-36.30340 Y33.72621
X-36.24971 Y33.83076
X-36.17003 Y33.93010
X-34.53002 Y35.57010
X-34.43066 Y35.64978
X-34.23234 Y35.73192
X-34.10579 Y35.74582
X-31.87260 Y35.74584
X-31.77014 Y35.86078
X-31.61581 Y35.97366
X-31.43298 Y36.05745
X-31.22637 Y36.10304
X-31.02518 Y36.10304
X-30.81858 Y36.05745
X-30.64454 Y35.97937
X-30.48987 Y35.86766
X-30.35371 Y35.71971
X-30.24276 Y35.52753
X-30.18434 Y35.34592
X-30.16331 Y35.14582
G04 P0 ( dwell for no time -- G64 should not smooth over this point )
G00 Z3.00000 ( retract )

G00 X-30.16331 Y32.60582 ( rapid move to begin. )
F250.00000
G01 Z-0.10000
G04 P0 ( dwell for no time -- G64 should not smooth over this point )
F500.00000
G01 X-30.16331 Y32.60582
X-30.18703 Y32.39563
X-30.25127 Y32.20503
X-30.34710 Y32.04008
X-30.47436 Y31.89797
X-30.63575 Y31.77801
X-30.83846 Y31.68776
X-31.03564 Y31.64806
X-31.22637 Y31.64862
X-31.41309 Y31.68776
X-31.61581 Y31.77801
X-31.77014 Y31.89086
X-31.87263 Y32.00585
X-32.60580 Y32.00582
X-32.60580 Y17.86033
X-32.46117 Y17.71499
X-32.35782 Y17.55304
X-32.28916 Y17.37357
X-32.25703 Y17.16379
X-32.26879 Y16.97204
X-32.31895 Y16.78660
X-32.40536 Y16.61499
X-32.52459 Y16.46435
X-32.67171 Y16.34075
X-32.84067 Y16.24931
X-33.02457 Y16.19379
X-33.19566 Y16.17636
X-33.31189 Y16.18225
X-33.49965 Y16.22292
X-33.65771 Y16.29074
X-33.81656 Y16.39882
X-33.95040 Y16.53666
X-34.06269 Y16.71680
X-34.12746 Y16.89765
X-34.15454 Y17.08787
X-34.14278 Y17.27961
X-34.09261 Y17.46506
X-34.00620 Y17.63666
X-33.90092 Y17.77265
X-33.80579 Y17.85700
X-33.79566 Y32.65316
X-33.75593 Y32.78425
X-33.63671 Y32.96271
X-33.48707 Y33.09883
X-33.36620 Y33.16345
X-33.25314 Y33.19576
X-33.14580 Y33.20582
X-31.87260 Y33.20584
X-31.77014 Y33.32078
X-31.61581 Y33.43366
X-31.43298 Y33.51745
X-31.22637 Y33.56304
X-31.03564 Y33.56358
X-30.83846 Y33.52390
X-30.65386 Y33.44412
X-30.47436 Y33.31369
X-30.34710 Y33.17158
X-30.24276 Y32.98753
X-30.18434 Y32.80592
X-30.16331 Y32.60582
G04 P0 ( dwell for no time -- G64 should not smooth over this point )
G00 Z3.00000 ( retract )

G00 X-45.40331 Y35.14582 ( rapid move to begin. )
F250.00000
G01 Z-0.10000
G04 P0 ( dwell for no time -- G64 should not smooth over this point )
F500.00000
G01 X-45.40331 Y35.14582
X-45.42434 Y34.94574
X-45.48276 Y34.76413
X-45.58710 Y34.58008
X-45.71436 Y34.43797
X-45.89386 Y34.30754
X-46.07846 Y34.22776
X-46.27564 Y34.18806
X-46.46637 Y34.18862
X-46.67298 Y34.23421
X-46.84702 Y34.31229
X-47.01720 Y34.43797
X-47.14445 Y34.58008
X-47.24879 Y34.76413
X-47.30721 Y34.94574
X-47.32827 Y35.14582
X-47.30721 Y35.34592
X-47.24879 Y35.52753
X-47.14445 Y35.71158
X-47.01720 Y35.85369
X-46.83770 Y35.98412
X-46.65309 Y36.06390
X-46.45593 Y36.10358
X-46.26518 Y36.10304
X-46.05858 Y36.05745
X-45.88454 Y35.97937
X-45.71436 Y35.85369
X-45.58710 Y35.71158
X-45.48276 Y35.52753
X-45.42434 Y35.34592
X-45.40331 Y35.14582
G04 P0 ( dwell for no time -- G64 should not smooth over this point )
G00 Z3.00000 ( retract )

G00 X-45.40331 Y37.68582 ( rapid move to begin. )
F250.00000
G01 Z-0.10000
G04 P0 ( dwell for no time -- G64 should not smooth over this point )
F500.00000
G01 X-45.40331 Y37.68582
X-45.42434 Y37.48574
X-45.48276 Y37.30413
X-45.58710 Y37.12008
X-45.71436 Y36.97797
X-45.89386 Y36.84754
X-46.07846 Y36.76776
X-46.27564 Y36.72806
X-46.46637 Y36.72862
X-46.67298 Y36.77421
X-46.84702 Y36.85229
X-47.01720 Y36.97797
X-47.14445 Y37.12008
X-47.24879 Y37.30413
X-47.30721 Y37.48574
X-47.32827 Y37.68582
X-47.30721 Y37.88592
X-47.24879 Y38.06753
X-47.14445 Y38.25158
X-47.01720 Y38.39369
X-46.83770 Y38.52412
X-46.65309 Y38.60390
X-46.45593 Y38.64358
X-46.26518 Y38.64304
X-46.05858 Y38.59745
X-45.88454 Y38.51937
X-45.71436 Y38.39369
X-45.58710 Y38.25158
X-45.48276 Y38.06753
X-45.42434 Y37.88592
X-45.40331 Y37.68582
G04 P0 ( dwell for no time -- G64 should not smooth over this point )
G00 Z3.00000 ( retract )

G00 X-45.40331 Y40.22582 ( rapid move to begin. )
F250.00000
G01 Z-0.10000
G04 P0 ( dwell for no time -- G64 should not smooth over this point )
F500.00000
G01 X-45.40331 Y40.22582
X-45.42434 Y40.02574
X-45.48276 Y39.84413
X-45.59371 Y39.65196
X-45.72987 Y39.50400
X-45.88454 Y39.39229
X-46.05858 Y39.31421
X-46.26518 Y39.26862
X-46.46637 Y39.26862
X-46.67298 Y39.31421
X-46.85581 Y39.39801
X-47.01014 Y39.51086
X-47.11263 Y39.62582
X-49.27724 Y39.62582
X-54.02577 Y34.87729
X-54.02579 Y18.62581
X-54.03585 Y18.51850
X-54.06814 Y18.40549
X-54.12183 Y18.30094
X-54.20151 Y18.20158
X-62.10576 Y10.29730
X-62.10579 Y7.86033
X-61.94879 Y7.69898
X-61.84887 Y7.53485
X-61.78915 Y7.37356
X-61.75702 Y7.16378
X-61.76878 Y6.97204
X-61.81191 Y6.80554
X-61.89466 Y6.63218
X-62.01064 Y6.47900
X-62.15509 Y6.35230
X-62.34066 Y6.24931
X-62.52456 Y6.19378
X-62.71084 Y6.17598
X-62.98034 Y6.21687
X-63.15770 Y6.29073
X-63.33190 Y6.41199
X-63.45039 Y6.53666
X-63.55374 Y6.69861
X-63.62240 Y6.87808
X-63.65453 Y7.08786
X-63.64277 Y7.27961
X-63.59260 Y7.46505
X-63.50619 Y7.63665
X-63.40091 Y7.77264
X-63.30576 Y7.85700
X-63.30579 Y10.54582
X-63.29184 Y10.67241
X-63.20970 Y10.87076
X-63.13002 Y10.97010
X-55.22579 Y18.87435
X-55.22579 Y35.12580
X-55.21185 Y35.25240
X-55.17591 Y35.36431
X-55.11881 Y35.46705
X-55.05002 Y35.55008
X-49.95001 Y40.65010
X-49.86695 Y40.71888
X-49.76421 Y40.77598
X-49.65232 Y40.81192
X-49.52578 Y40.82582
X-47.11260 Y40.82584
X-47.01014 Y40.94078
X-46.85581 Y41.05366
X-46.67298 Y41.13745
X-46.46637 Y41.18304
X-46.26518 Y41.18304
X-46.05858 Y41.13745
X-45.88454 Y41.05937
X-45.72987 Y40.94766
X-45.59371 Y40.79971
X-45.48276 Y40.60753
X-45.42434 Y40.42592
X-45.40331 Y40.22582
G04 P0 ( dwell for no time -- G64 should not smooth over this point )
G00 Z3.00000 ( retract )

G00 X-45.40331 Y42.76582 ( rapid move to begin. )
F250.00000
G01 Z-0.10000
G04 P0 ( dwell for no time -- G64 should not smooth over this point )
F500.00000
G01 X-45.40331 Y42.76582
X-45.42434 Y42.56574
X-45.48276 Y42.38413
X-45.59371 Y42.19196
X-45.72987 Y42.04400
X-45.88454 Y41.93229
X-46.05858 Y41.85421
X-46.26518 Y41.80862
X-46.46637 Y41.80862
X-46.67298 Y41.85421
X-46.85581 Y41.93801
X-47.01014 Y42.05086
X-47.11263 Y42.16582
X-49.23726 Y42.16582
X-56.02576 Y35.37729
X-56.02579 Y19.12581
X-56.03585 Y19.01849
X-56.06813 Y18.90549
X-56.12183 Y18.80094
X-56.20151 Y18.70158
X-66.44576 Y8.45730
X-66.44578 Y7.86033
X-66.30116 Y7.71499
X-66.19780 Y7.55304
X-66.12915 Y7.37356
X-66.09702 Y7.16378
X-66.10878 Y6.97204
X-66.15191 Y6.80554
X-66.23466 Y6.63218
X-66.35064 Y6.47900
X-66.49509 Y6.35230
X-66.66207 Y6.25728
X-66.86455 Y6.19378
X-67.03565 Y6.17636
X-67.15188 Y6.18225
X-67.33964 Y6.22291
X-67.51540 Y6.30056
X-67.65655 Y6.39881
X-67.79038 Y6.53666
X-67.89374 Y6.69861
X-67.96239 Y6.87808
X-67.99452 Y7.08786
X-67.98276 Y7.27961
X-67.93260 Y7.46505
X-67.84619 Y7.63665
X-67.74091 Y7.77264
X-67.64576 Y7.85700
X-67.64527 Y8.71565
X-67.60339 Y8.92621
X-67.53880 Y9.04706
X-57.22579 Y19.37435
X-57.22579 Y35.62580
X-57.21184 Y35.75240
X-57.12970 Y35.95074
X-57.05002 Y36.05008
X-49.91003 Y43.19010
X-49.81066 Y43.26978
X-49.61234 Y43.35192
X-49.48580 Y43.36582
X-47.11260 Y43.36584
X-47.01014 Y43.48078
X-46.85581 Y43.59366
X-46.67298 Y43.67745
X-46.46637 Y43.72304
X-46.26518 Y43.72304
X-46.05858 Y43.67745
X-45.88454 Y43.59937
X-45.72987 Y43.48766
X-45.59371 Y43.33971
X-45.48276 Y43.14753
X-45.42434 Y42.96592
X-45.40331 Y42.76582
G04 P0 ( dwell for no time -- G64 should not smooth over this point )
G00 Z3.00000 ( retract )

G00 X-45.40331 Y45.30582 ( rapid move to begin. )
F250.00000
G01 Z-0.10000
G04 P0 ( dwell for no time -- G64 should not smooth over this point )
F500.00000
G01 X-45.40331 Y45.30582
X-45.42434 Y45.10574
X-45.48276 Y44.92413
X-45.59371 Y44.73196
X-45.72987 Y44.58400
X-45.88454 Y44.47229
X-46.05858 Y44.39421
X-46.26518 Y44.34862
X-46.46637 Y44.34862
X-46.67298 Y44.39421
X-46.85581 Y44.47801
X-47.01014 Y44.59086
X-47.11263 Y44.70582
X-53.19725 Y44.70582
X-59.52578 Y38.37728
X-59.52578 Y34.62580
X-59.53968 Y34.49926
X-59.62182 Y34.30094
X-59.70150 Y34.20157
X-63.98577 Y29.91728
X-63.98579 Y29.73592
X-63.89042 Y29.63183
X-63.79639 Y29.46582
X-63.74295 Y29.29427
X-63.72580 Y29.12582
X-63.74295 Y28.95739
X-63.79639 Y28.78584
X-63.89004 Y28.62033
X-64.00294 Y28.49414
X-64.15580 Y28.38106
X-64.31025 Y28.31169
X-64.49590 Y28.27055
X-64.67566 Y28.27055
X-64.86131 Y28.31169
X-65.01576 Y28.38106
X-65.16123 Y28.48675
X-65.27492 Y28.61220
X-65.37517 Y28.78584
X-65.42862 Y28.95739
X-65.44523 Y29.13628
X-65.42427 Y29.31472
X-65.37517 Y29.46582
X-65.28114 Y29.63183
X-65.18579 Y29.73595
X-65.17566 Y30.27321
X-65.13591 Y30.40432
X-65.07881 Y30.50707
X-60.72578 Y34.87437
X-60.72578 Y38.62580
X-60.71184 Y38.75239
X-60.62969 Y38.95074
X-60.55001 Y39.05008
X-53.86275 Y45.73670
X-53.77065 Y45.80978
X-53.66610 Y45.86348
X-53.55310 Y45.89576
X-53.44579 Y45.90582
X-47.11260 Y45.90582
X-47.01014 Y46.02078
X-46.85581 Y46.13366
X-46.67298 Y46.21745
X-46.46637 Y46.26304
X-46.27564 Y46.26358
X-46.07846 Y46.22390
X-45.89386 Y46.14412
X-45.71436 Y46.01369
X-45.58710 Y45.87158
X-45.48276 Y45.68753
X-45.42434 Y45.50592
X-45.40331 Y45.30582
G04 P0 ( dwell for no time -- G64 should not smooth over this point )
G00 Z3.00000 ( retract )

G00 X-45.40331 Y47.84582 ( rapid move to begin. )
F250.00000
G01 Z-0.10000
G04 P0 ( dwell for no time -- G64 should not smooth over this point )
F500.00000
G01 X-45.40331 Y47.84582
X-45.42434 Y47.64574
X-45.48276 Y47.46413
X-45.58710 Y47.28008
X-45.71436 Y47.13797
X-45.89386 Y47.00754
X-46.07846 Y46.92776
X-46.27564 Y46.88806
X-46.46637 Y46.88862
X-46.67298 Y46.93421
X-46.84702 Y47.01229
X-47.01720 Y47.13797
X-47.14445 Y47.28008
X-47.24879 Y47.46413
X-47.30721 Y47.64574
X-47.32827 Y47.84582
X-47.30721 Y48.04592
X-47.24879 Y48.22753
X-47.14445 Y48.41158
X-47.01720 Y48.55369
X-46.83770 Y48.68412
X-46.65309 Y48.76390
X-46.45593 Y48.80358
X-46.26518 Y48.80304
X-46.05858 Y48.75745
X-45.88454 Y48.67937
X-45.71436 Y48.55369
X-45.58710 Y48.41158
X-45.48276 Y48.22753
X-45.42434 Y48.04592
X-45.40331 Y47.84582
G04 P0 ( dwell for no time -- G64 should not smooth over this point )
G00 Z3.00000 ( retract )

G00 X-45.40331 Y50.38582 ( rapid move to begin. )
F250.00000
G01 Z-0.10000
G04 P0 ( dwell for no time -- G64 should not smooth over this point )
F500.00000
G01 X-45.40331 Y50.38582
X-45.42434 Y50.18574
X-45.48276 Y50.00413
X-45.58710 Y49.82008
X-45.71436 Y49.67797
X-45.89386 Y49.54754
X-46.07846 Y49.46776
X-46.27564 Y49.42806
X-46.46637 Y49.42862
X-46.67298 Y49.47421
X-46.84702 Y49.55229
X-47.01720 Y49.67797
X-47.14445 Y49.82008
X-47.24879 Y50.00413
X-47.30721 Y50.18574
X-47.32827 Y50.38582
X-47.30721 Y50.58592
X-47.24879 Y50.76753
X-47.14445 Y50.95158
X-47.01720 Y51.09369
X-46.83770 Y51.22412
X-46.65309 Y51.30390
X-46.45593 Y51.34358
X-46.26518 Y51.34304
X-46.05858 Y51.29745
X-45.88454 Y51.21937
X-45.71436 Y51.09369
X-45.58710 Y50.95158
X-45.48276 Y50.76753
X-45.42434 Y50.58592
X-45.40331 Y50.38582
G04 P0 ( dwell for no time -- G64 should not smooth over this point )
G00 Z3.00000 ( retract )

G00 X-45.40331 Y52.92582 ( rapid move to begin. )
F250.00000
G01 Z-0.10000
G04 P0 ( dwell for no time -- G64 should not smooth over this point )
F500.00000
G01 X-45.40331 Y52.92582
X-45.42434 Y52.72574
X-45.48276 Y52.54413
X-45.59371 Y52.35196
X-45.72987 Y52.20400
X-45.88454 Y52.09229
X-46.05858 Y52.01421
X-46.26518 Y51.96862
X-46.46637 Y51.96862
X-46.67298 Y52.01421
X-46.85581 Y52.09801
X-47.01014 Y52.21086
X-47.11263 Y52.32585
X-49.43558 Y52.32633
X-49.55232 Y52.33976
X-49.66423 Y52.37571
X-49.84274 Y52.49498
X-51.05003 Y53.70159
X-51.12971 Y53.80092
X-51.21186 Y53.99927
X-51.22580 Y54.12582
X-51.22580 Y57.37732
X-53.87428 Y60.02580
X-65.36052 Y60.02580
X-65.48152 Y59.89466
X-65.62950 Y59.78715
X-65.81472 Y59.70231
X-66.01355 Y59.65781
X-66.21724 Y59.65562
X-66.42706 Y59.69855
X-66.61327 Y59.78146
X-66.78556 Y59.90866
X-66.92026 Y60.06152
X-67.02023 Y60.23904
X-67.07675 Y60.41300
X-67.10022 Y60.61536
X-67.08109 Y60.81818
X-67.02023 Y61.01259
X-66.90796 Y61.20703
X-66.77004 Y61.35697
X-66.62206 Y61.46449
X-66.42706 Y61.55308
X-66.21724 Y61.59598
X-66.01355 Y61.59382
X-65.81472 Y61.54932
X-65.62950 Y61.46449
X-65.48152 Y61.35697
X-65.36052 Y61.22580
X-53.62579 Y61.22580
X-53.51843 Y61.21574
X-53.40540 Y61.18346
X-53.30085 Y61.12976
X-53.20151 Y61.05008
X-50.20152 Y58.05009
X-50.13274 Y57.96706
X-50.07564 Y57.86432
X-50.03970 Y57.75240
X-50.02580 Y57.62581
X-50.02578 Y54.37438
X-49.17721 Y53.52584
X-47.11260 Y53.52584
X-47.01014 Y53.64078
X-46.85581 Y53.75366
X-46.65309 Y53.84390
X-46.45593 Y53.88358
X-46.26518 Y53.88304
X-46.07846 Y53.84390
X-45.87575 Y53.75366
X-45.71436 Y53.63369
X-45.58710 Y53.49158
X-45.49127 Y53.32663
X-45.42703 Y53.13603
X-45.40331 Y52.92582
G04 P0 ( dwell for no time -- G64 should not smooth over this point )
G00 Z3.00000 ( retract )

G00 X-45.40331 Y55.46582 ( rapid move to begin. )
F250.00000
G01 Z-0.10000
G04 P0 ( dwell for no time -- G64 should not smooth over this point )
F500.00000
G01 X-45.40331 Y55.46582
X-45.42434 Y55.26574
X-45.48276 Y55.08413
X-45.58710 Y54.90008
X-45.71436 Y54.75797
X-45.89386 Y54.62754
X-46.07846 Y54.54776
X-46.27564 Y54.50806
X-46.46637 Y54.50862
X-46.67298 Y54.55421
X-46.84702 Y54.63229
X-47.01720 Y54.75797
X-47.14445 Y54.90008
X-47.24879 Y55.08413
X-47.30721 Y55.26574
X-47.32827 Y55.46582
X-47.30721 Y55.66592
X-47.24879 Y55.84753
X-47.14445 Y56.03158
X-47.01720 Y56.17369
X-46.83770 Y56.30412
X-46.65309 Y56.38390
X-46.45593 Y56.42358
X-46.26518 Y56.42304
X-46.05858 Y56.37745
X-45.88454 Y56.29937
X-45.71436 Y56.17369
X-45.58710 Y56.03158
X-45.48276 Y55.84753
X-45.42434 Y55.66592
X-45.40331 Y55.46582
G04 P0 ( dwell for no time -- G64 should not smooth over this point )
G00 Z3.00000 ( retract )

G00 X-45.40331 Y60.54582 ( rapid move to begin. )
F250.00000
G01 Z-0.10000
G04 P0 ( dwell for no time -- G64 should not smooth over this point )
F500.00000
G01 X-45.40331 Y60.54582
X-45.42434 Y60.34574
X-45.48276 Y60.16413
X-45.58710 Y59.98008
X-45.71436 Y59.83797
X-45.89386 Y59.70754
X-46.07846 Y59.62776
X-46.27564 Y59.58806
X-46.46637 Y59.58862
X-46.67298 Y59.63421
X-46.84702 Y59.71229
X-47.01720 Y59.83797
X-47.14445 Y59.98008
X-47.24879 Y60.16413
X-47.30721 Y60.34574
X-47.32827 Y60.54582
X-47.30721 Y60.74592
X-47.24879 Y60.92753
X-47.14445 Y61.11158
X-47.01720 Y61.25369
X-46.83770 Y61.38412
X-46.65309 Y61.46390
X-46.45593 Y61.50358
X-46.26518 Y61.50304
X-46.05858 Y61.45745
X-45.88454 Y61.37937
X-45.71436 Y61.25369
X-45.58710 Y61.11158
X-45.48276 Y60.92753
X-45.42434 Y60.74592
X-45.40331 Y60.54582
G04 P0 ( dwell for no time -- G64 should not smooth over this point )
G00 Z3.00000 ( retract )

G00 X-45.40331 Y63.08582 ( rapid move to begin. )
F250.00000
G01 Z-0.10000
G04 P0 ( dwell for no time -- G64 should not smooth over this point )
F500.00000
G01 X-45.40331 Y63.08582
X-45.42434 Y62.88574
X-45.48276 Y62.70413
X-45.58710 Y62.52008
X-45.71436 Y62.37797
X-45.89386 Y62.24754
X-46.07846 Y62.16776
X-46.27564 Y62.12806
X-46.46637 Y62.12862
X-46.67298 Y62.17421
X-46.84702 Y62.25229
X-47.01720 Y62.37797
X-47.14445 Y62.52008
X-47.24879 Y62.70413
X-47.30721 Y62.88574
X-47.32827 Y63.08582
X-47.30721 Y63.28592
X-47.24879 Y63.46753
X-47.14445 Y63.65158
X-47.01720 Y63.79369
X-46.83770 Y63.92412
X-46.65309 Y64.00390
X-46.45593 Y64.04358
X-46.26518 Y64.04304
X-46.05858 Y63.99745
X-45.88454 Y63.91937
X-45.71436 Y63.79369
X-45.58710 Y63.65158
X-45.48276 Y63.46753
X-45.42434 Y63.28592
X-45.40331 Y63.08582
G04 P0 ( dwell for no time -- G64 should not smooth over this point )
G00 Z3.00000 ( retract )

G00 X-45.40331 Y65.62582 ( rapid move to begin. )
F250.00000
G01 Z-0.10000
G04 P0 ( dwell for no time -- G64 should not smooth over this point )
F500.00000
G01 X-45.40331 Y65.62582
X-45.42434 Y65.42574
X-45.48276 Y65.24413
X-45.58710 Y65.06008
X-45.71436 Y64.91797
X-45.89386 Y64.78754
X-46.07846 Y64.70776
X-46.27564 Y64.66806
X-46.47671 Y64.67027
X-46.65309 Y64.70776
X-46.81143 Y64.77583
X-68.77372 Y64.77583
X-69.27580 Y64.27378
X-69.27580 Y57.47790
X-68.27370 Y56.47580
X-67.10077 Y56.47580
X-67.08391 Y56.55637
X-67.03903 Y56.59320
X-67.00077 Y56.60079
X-65.25082 Y56.60079
X-65.19524 Y56.58395
X-65.15841 Y56.53907
X-65.15082 Y56.50079
X-65.15079 Y55.98819
X-65.05889 Y55.82101
X-65.02852 Y55.67809
X-65.02905 Y55.56313
X-65.05244 Y55.45055
X-65.10616 Y55.32584
X-65.15082 Y55.26346
X-65.15841 Y54.71258
X-65.19524 Y54.66770
X-65.25082 Y54.65083
X-67.00077 Y54.65083
X-67.05632 Y54.66770
X-67.08391 Y54.69528
X-67.10077 Y54.77583
X-68.62579 Y54.77583
X-68.78190 Y54.79076
X-68.94179 Y54.83724
X-69.08959 Y54.91405
X-69.22678 Y55.02482
X-70.72678 Y56.52482
X-70.83755 Y56.66201
X-70.91436 Y56.80981
X-70.96084 Y56.96970
X-70.97577 Y57.12581
X-70.97577 Y64.62582
X-70.96086 Y64.78198
X-70.90686 Y64.96001
X-70.82665 Y65.10596
X-70.72678 Y65.22686
X-69.72678 Y66.22686
X-69.58954 Y66.33765
X-69.44179 Y66.41444
X-69.28187 Y66.46095
X-69.12579 Y66.47580
X-46.81141 Y66.47580
X-46.65309 Y66.54390
X-46.47671 Y66.58139
X-46.27564 Y66.58358
X-46.07846 Y66.54390
X-45.89386 Y66.46412
X-45.71436 Y66.33369
X-45.58710 Y66.19158
X-45.48276 Y66.00753
X-45.42434 Y65.82592
X-45.40331 Y65.62582
G04 P0 ( dwell for no time -- G64 should not smooth over this point )
G00 Z3.00000 ( retract )

G00 X-65.15082 Y63.12580 ( rapid move to begin. )
F250.00000
G01 Z-0.10000
G04 P0 ( dwell for no time -- G64 should not smooth over this point )
F500.00000
G01 X-65.15082 Y63.12580
X-65.17482 Y62.91300
X-65.23509 Y62.72925
X-65.33131 Y62.56151
X-65.46600 Y62.40865
X-65.64761 Y62.27670
X-65.82450 Y62.19855
X-66.03436 Y62.15562
X-66.23801 Y62.15780
X-66.42706 Y62.19855
X-66.61327 Y62.28145
X-66.78556 Y62.40865
X-66.92026 Y62.56151
X-67.01647 Y62.72925
X-67.07675 Y62.91300
X-67.10077 Y63.12580
X-67.07675 Y63.33862
X-67.01647 Y63.52237
X-66.92026 Y63.69011
X-66.78556 Y63.84297
X-66.61327 Y63.97017
X-66.43684 Y64.04932
X-66.21724 Y64.09598
X-66.01355 Y64.09382
X-65.82450 Y64.05308
X-65.63829 Y63.97017
X-65.46600 Y63.84297
X-65.33131 Y63.69011
X-65.23509 Y63.52237
X-65.17482 Y63.33862
X-65.15082 Y63.12580
G04 P0 ( dwell for no time -- G64 should not smooth over this point )
G00 Z3.00000 ( retract )

G00 X-65.15082 Y58.12581 ( rapid move to begin. )
F250.00000
G01 Z-0.10000
G04 P0 ( dwell for no time -- G64 should not smooth over this point )
F500.00000
G01 X-65.15082 Y58.12581
X-65.17482 Y57.91301
X-65.23509 Y57.72926
X-65.33131 Y57.56152
X-65.46600 Y57.40866
X-65.64761 Y57.27671
X-65.82450 Y57.19856
X-66.03436 Y57.15563
X-66.23801 Y57.15781
X-66.42706 Y57.19856
X-66.61327 Y57.28146
X-66.78556 Y57.40866
X-66.92026 Y57.56152
X-67.01647 Y57.72926
X-67.07675 Y57.91301
X-67.10077 Y58.12581
X-67.07675 Y58.33863
X-67.01647 Y58.52238
X-66.92026 Y58.69012
X-66.78556 Y58.84298
X-66.61327 Y58.97018
X-66.43684 Y59.04933
X-66.21724 Y59.09599
X-66.01355 Y59.09383
X-65.82450 Y59.05309
X-65.63829 Y58.97018
X-65.46600 Y58.84298
X-65.33131 Y58.69012
X-65.23509 Y58.52238
X-65.17482 Y58.33863
X-65.15082 Y58.12581
G04 P0 ( dwell for no time -- G64 should not smooth over this point )
G00 Z3.00000 ( retract )

G00 X-66.26580 Y28.36582 ( rapid move to begin. )
F250.00000
G01 Z-0.10000
G04 P0 ( dwell for no time -- G64 should not smooth over this point )
F500.00000
G01 X-66.26580 Y28.36582
X-66.26580 Y29.88581
X-66.29509 Y29.95652
X-66.36580 Y29.98581
X-67.88579 Y29.98581
X-67.95647 Y29.95652
X-67.98579 Y29.88581
X-67.98579 Y28.36582
X-67.95647 Y28.29513
X-67.88579 Y28.26582
X-66.36580 Y28.26582
X-66.29509 Y28.29513
X-66.26580 Y28.36582
G04 P0 ( dwell for no time -- G64 should not smooth over this point )
G00 Z3.00000 ( retract )

G00 X-61.18580 Y29.12584 ( rapid move to begin. )
F250.00000
G01 Z-0.10000
G04 P0 ( dwell for no time -- G64 should not smooth over this point )
F500.00000
G01 X-61.18580 Y29.12584
X-61.19581 Y25.20581
X-61.21450 Y25.03050
X-61.26467 Y24.87170
X-61.34485 Y24.72575
X-61.44475 Y24.60482
X-64.25435 Y21.79522
X-64.27581 Y21.75143
X-64.27581 Y20.57579
X-64.20510 Y20.54651
X-64.17581 Y20.47579
X-64.17581 Y18.77582
X-64.19265 Y18.72027
X-64.22024 Y18.69269
X-64.27581 Y18.67582
X-66.01404 Y18.68344
X-66.05892 Y18.72027
X-66.07578 Y18.77582
X-66.07578 Y20.47579
X-66.04647 Y20.54651
X-65.97578 Y20.57579
X-65.97578 Y21.74270
X-66.04746 Y21.93764
X-66.07454 Y22.12786
X-66.06278 Y22.31961
X-66.01965 Y22.48610
X-65.92620 Y22.67665
X-65.80697 Y22.82730
X-65.65986 Y22.95090
X-65.50949 Y23.03436
X-65.37495 Y23.07871
X-62.89578 Y25.55788
X-62.90576 Y29.12582
X-62.88427 Y29.31472
X-62.82667 Y29.48492
X-62.74152 Y29.63133
X-62.62862 Y29.75751
X-62.46644 Y29.87534
X-62.30142 Y29.94641
X-62.13566 Y29.98111
X-61.95590 Y29.98111
X-61.79014 Y29.94641
X-61.60701 Y29.86490
X-61.47033 Y29.76490
X-61.35004 Y29.63133
X-61.26490 Y29.48492
X-61.20729 Y29.31472
X-61.18580 Y29.12584
G04 P0 ( dwell for no time -- G64 should not smooth over this point )
G00 Z3.00000 ( retract )

G00 X-44.95703 Y17.16379 ( rapid move to begin. )
F250.00000
G01 Z-0.10000
G04 P0 ( dwell for no time -- G64 should not smooth over this point )
F500.00000
G01 X-44.95703 Y17.16379
X-44.98411 Y17.35401
X-45.04888 Y17.53486
X-45.16117 Y17.71499
X-45.29500 Y17.85284
X-45.43615 Y17.95109
X-45.61192 Y18.02873
X-45.76579 Y18.06244
X-45.76579 Y29.31789
X-45.58710 Y29.50008
X-45.48276 Y29.68413
X-45.42269 Y29.87608
X-45.40331 Y30.06582
X-45.42269 Y30.25558
X-45.48276 Y30.44753
X-45.58141 Y30.62279
X-45.72987 Y30.78766
X-45.88454 Y30.89937
X-46.07846 Y30.98390
X-46.26518 Y31.02304
X-46.46637 Y31.02304
X-46.67298 Y30.97745
X-46.84702 Y30.89937
X-47.00168 Y30.78766
X-47.13785 Y30.63971
X-47.24879 Y30.44753
X-47.30721 Y30.26592
X-47.32827 Y30.06582
X-47.30721 Y29.86574
X-47.24029 Y29.66503
X-47.14445 Y29.50008
X-46.96579 Y29.31792
X-46.95565 Y17.47847
X-46.91590 Y17.34735
X-46.84610 Y17.22914
X-46.85456 Y17.07819
X-46.82240 Y16.87809
X-46.76269 Y16.71680
X-46.66277 Y16.55266
X-46.53191 Y16.41200
X-46.37542 Y16.30057
X-46.19965 Y16.22292
X-46.01189 Y16.18225
X-45.89566 Y16.17636
X-45.72457 Y16.19379
X-45.54067 Y16.24931
X-45.37171 Y16.34075
X-45.22459 Y16.46435
X-45.10536 Y16.61499
X-45.01895 Y16.78660
X-44.96879 Y16.97204
X-44.95703 Y17.16379
G04 P0 ( dwell for no time -- G64 should not smooth over this point )
G00 Z3.00000 ( retract )

G00 X-29.71703 Y17.16379 ( rapid move to begin. )
F250.00000
G01 Z-0.10000
G04 P0 ( dwell for no time -- G64 should not smooth over this point )
F500.00000
G01 X-29.71703 Y17.16379
X-29.74916 Y17.37357
X-29.81782 Y17.55304
X-29.92117 Y17.71499
X-30.06580 Y17.86033
X-30.07585 Y29.71316
X-30.11563 Y29.84431
X-30.17494 Y29.94974
X-30.16384 Y30.07628
X-30.18703 Y30.27603
X-30.25127 Y30.46663
X-30.35371 Y30.63971
X-30.47436 Y30.77369
X-30.63575 Y30.89366
X-30.81858 Y30.97745
X-31.02518 Y31.02304
X-31.22637 Y31.02304
X-31.43298 Y30.97745
X-31.60702 Y30.89937
X-31.76168 Y30.78766
X-31.89785 Y30.63971
X-32.00879 Y30.44753
X-32.06721 Y30.26592
X-32.08827 Y30.06582
X-32.06721 Y29.86574
X-32.00879 Y29.68413
X-31.89785 Y29.49196
X-31.76168 Y29.34400
X-31.60702 Y29.23229
X-31.43298 Y29.15421
X-31.26579 Y29.11644
X-31.26579 Y17.85700
X-31.36092 Y17.77265
X-31.46620 Y17.63666
X-31.55261 Y17.46506
X-31.60278 Y17.27961
X-31.61352 Y17.06765
X-31.58240 Y16.87809
X-31.52269 Y16.71680
X-31.42277 Y16.55266
X-31.29191 Y16.41200
X-31.13542 Y16.30057
X-30.95965 Y16.22292
X-30.77189 Y16.18225
X-30.65566 Y16.17636
X-30.46475 Y16.19785
X-30.28208 Y16.25729
X-30.11510 Y16.35231
X-29.97065 Y16.47900
X-29.85467 Y16.63219
X-29.77192 Y16.80555
X-29.72879 Y16.97204
X-29.71703 Y17.16379
G04 P0 ( dwell for no time -- G64 should not smooth over this point )
G00 Z3.00000 ( retract )

G00 X-27.17581 Y16.27583 ( rapid move to begin. )
F250.00000
G01 Z-0.10000
G04 P0 ( dwell for no time -- G64 should not smooth over this point )
F500.00000
G01 X-27.17581 Y16.27583
X-27.17581 Y17.97580
X-27.20510 Y18.04651
X-27.27581 Y18.07580
X-28.97578 Y18.07580
X-29.04647 Y18.04651
X-29.07578 Y17.97580
X-29.07578 Y16.27583
X-29.04647 Y16.20514
X-28.97578 Y16.17583
X-27.27581 Y16.17583
X-27.20510 Y16.20514
X-27.17581 Y16.27583
G04 P0 ( dwell for no time -- G64 should not smooth over this point )
G00 Z3.00000 ( retract )

G00 X-56.67580 Y6.27582 ( rapid move to begin. )
F250.00000
G01 Z-0.10000
G04 P0 ( dwell for no time -- G64 should not smooth over this point )
F500.00000
G01 X-56.67580 Y6.27582
X-56.67580 Y7.97579
X-56.70509 Y8.04651
X-56.77580 Y8.07579
X-58.47577 Y8.07579
X-58.54646 Y8.04651
X-58.57577 Y7.97579
X-58.57577 Y6.27582
X-58.54646 Y6.20513
X-58.47577 Y6.17582
X-56.77580 Y6.17582
X-56.70509 Y6.20513
X-56.67580 Y6.27582
G04 P0 ( dwell for no time -- G64 should not smooth over this point )
G00 Z3.00000 ( retract )

G00 X-59.21702 Y7.16378 ( rapid move to begin. )
F250.00000
G01 Z-0.10000
G04 P0 ( dwell for no time -- G64 should not smooth over this point )
F500.00000
G01 X-59.21702 Y7.16378
X-59.24410 Y7.35400
X-59.30887 Y7.53485
X-59.40879 Y7.69898
X-59.53965 Y7.83965
X-59.69614 Y7.95108
X-59.87191 Y8.02873
X-60.05967 Y8.06939
X-60.17590 Y8.07529
X-60.36680 Y8.05380
X-60.54948 Y7.99436
X-60.71646 Y7.89934
X-60.86091 Y7.77264
X-60.97689 Y7.61946
X-61.05964 Y7.44610
X-61.10277 Y7.27961
X-61.11453 Y7.08786
X-61.08745 Y6.89764
X-61.02268 Y6.71679
X-60.92276 Y6.55266
X-60.79190 Y6.41199
X-60.63541 Y6.30056
X-60.45964 Y6.22291
X-60.27188 Y6.18225
X-60.15565 Y6.17636
X-59.96475 Y6.19784
X-59.78207 Y6.25728
X-59.61509 Y6.35230
X-59.47064 Y6.47900
X-59.35466 Y6.63218
X-59.27191 Y6.80554
X-59.22878 Y6.97204
X-59.21702 Y7.16378
G04 P0 ( dwell for no time -- G64 should not smooth over this point )
G00 Z3.00000 ( retract )

G00 X-68.63702 Y7.16378 ( rapid move to begin. )
F250.00000
G01 Z-0.10000
G04 P0 ( dwell for no time -- G64 should not smooth over this point )
F500.00000
G01 X-68.63702 Y7.16378
X-68.66409 Y7.35400
X-68.72886 Y7.53485
X-68.82879 Y7.69898
X-68.95965 Y7.83965
X-69.11614 Y7.95108
X-69.29191 Y8.02873
X-69.47966 Y8.06939
X-69.59589 Y8.07529
X-69.78680 Y8.05380
X-69.96948 Y7.99436
X-70.13646 Y7.89934
X-70.28091 Y7.77264
X-70.39688 Y7.61946
X-70.47963 Y7.44610
X-70.52276 Y7.27961
X-70.53452 Y7.08786
X-70.50745 Y6.89764
X-70.44268 Y6.71679
X-70.34275 Y6.55266
X-70.21189 Y6.41199
X-70.05540 Y6.30056
X-69.87964 Y6.22291
X-69.69188 Y6.18225
X-69.57565 Y6.17636
X-69.38474 Y6.19784
X-69.20207 Y6.25728
X-69.03509 Y6.35230
X-68.89064 Y6.47900
X-68.77466 Y6.63218
X-68.69191 Y6.80554
X-68.64878 Y6.97204
X-68.63702 Y7.16378
G04 P0 ( dwell for no time -- G64 should not smooth over this point )
G00 Z3.00000 ( retract )

G00 X-71.17580 Y6.27582 ( rapid move to begin. )
F250.00000
G01 Z-0.10000
G04 P0 ( dwell for no time -- G64 should not smooth over this point )
F500.00000
G01 X-71.17580 Y6.27582
X-71.17580 Y7.97579
X-71.20508 Y8.04651
X-71.27580 Y8.07579
X-72.97577 Y8.07579
X-73.04646 Y8.04651
X-73.07577 Y7.97579
X-73.07577 Y6.27582
X-73.04646 Y6.20513
X-72.97577 Y6.17582
X-71.27580 Y6.17582
X-71.20508 Y6.20513
X-71.17580 Y6.27582

o1 endsub

o1 call
G92 X[#5420-[77.251604]]
o1 call
G92 X[#5420-[77.251604]]
o1 call
G92 Y[#5421-[77.251597]]
o1 call
G92 X[#5420-[-77.251604]]
o1 call
G92 X[#5420-[-77.251604]]
o1 call
G92 Y[#5421-[-77.251597]]

G04 P0 ( dwell for no time -- G64 should not smooth over this point )
G00 Z50.000 ( retract )

M5 ( Spindle off. )
G04 P2.000000
M9 ( Coolant off. )
M2 ( Program end. )

