( pcb2gcode 1.3.2 )
( Gcode for linuxcnc )

G94 ( Millimeters per minute feed rate. )
G21 ( Units == Millimeters. )

G90 ( Absolute coordinates. )
S6000 ( RPM spindle speed. )
G64 P0.01016 ( set maximum deviation from commanded toolpath )
F150.00000 ( Feedrate. )

F150.00000 ( Feedrate. )
M3 ( Spindle on clockwise. )
G04 P2.00000

o1 sub ( Main subroutine )

G04 P0 ( dwell for no time -- G64 should not smooth over this point )
G00 Z3.00000 ( retract )

G00 X0.12580 Y1.12582 ( rapid move to begin. )
G01 Z-0.50000 F75.00000 ( plunge. )
G04 P0 ( dwell for no time -- G64 should not smooth over this point )
F150.00000
G01 X0.12580 Y1.12582
X0.12580 Y36.12581
X0.12580 Y41.12581
X0.12580 Y76.12580
X0.14500 Y76.32089
X0.20190 Y76.50850
X0.29433 Y76.68137
X0.41869 Y76.83291
X0.57022 Y76.95727
X0.74310 Y77.04970
X0.93070 Y77.10659
X1.12580 Y77.12580
X36.12580 Y77.12580
X41.12580 Y77.12580
X76.12580 Y77.12580
X76.32087 Y77.10659
X76.50848 Y77.04970
X76.68135 Y76.95727
X76.83289 Y76.83291
X76.95724 Y76.68137
X77.04967 Y76.50850
X77.10657 Y76.32089
X77.12580 Y76.12580
X77.12580 Y41.12581
X77.12580 Y36.12581
X77.12580 Y1.12582
X77.10657 Y0.93075
X77.04967 Y0.74314
X76.95724 Y0.57027
X76.83289 Y0.41874
X76.68135 Y0.29438
X76.50848 Y0.20195
X76.32087 Y0.14505
X76.12580 Y0.12582
X41.12580 Y0.12582
X36.12580 Y0.12582
X1.12580 Y0.12582
X0.93070 Y0.14505
X0.74310 Y0.20195
X0.57022 Y0.29438
X0.41869 Y0.41874
X0.29433 Y0.57027
X0.20190 Y0.74314
X0.14500 Y0.93075
X0.12580 Y1.12582
G01 Z-1.00000 F75.00000 ( plunge. )
G04 P0 ( dwell for no time -- G64 should not smooth over this point )
F150.00000
G01 X0.12580 Y1.12582
X0.12580 Y36.12581
X0.12580 Y41.12581
X0.12580 Y76.12580
X0.14500 Y76.32089
X0.20190 Y76.50850
X0.29433 Y76.68137
X0.41869 Y76.83291
X0.57022 Y76.95727
X0.74310 Y77.04970
X0.93070 Y77.10659
X1.12580 Y77.12580
X36.12580 Y77.12580
X41.12580 Y77.12580
X76.12580 Y77.12580
X76.32087 Y77.10659
X76.50848 Y77.04970
X76.68135 Y76.95727
X76.83289 Y76.83291
X76.95724 Y76.68137
X77.04967 Y76.50850
X77.10657 Y76.32089
X77.12580 Y76.12580
X77.12580 Y41.12581
X77.12580 Y36.12581
X77.12580 Y1.12582
X77.10657 Y0.93075
X77.04967 Y0.74314
X76.95724 Y0.57027
X76.83289 Y0.41874
X76.68135 Y0.29438
X76.50848 Y0.20195
X76.32087 Y0.14505
X76.12580 Y0.12582
X41.12580 Y0.12582
X36.12580 Y0.12582
X1.12580 Y0.12582
X0.93070 Y0.14505
X0.74310 Y0.20195
X0.57022 Y0.29438
X0.41869 Y0.41874
X0.29433 Y0.57027
X0.20190 Y0.74314
X0.14500 Y0.93075
X0.12580 Y1.12582
G01 Z-1.50000 F75.00000 ( plunge. )
G04 P0 ( dwell for no time -- G64 should not smooth over this point )
F150.00000
G01 X0.12580 Y1.12582
X0.12580 Y36.12581
Z-1.00000
X0.12580 Y41.12581
Z-1.50000 F75.00000
F150.00000
G01 X0.12580 Y76.12580
X0.14500 Y76.32089
X0.20190 Y76.50850
X0.29433 Y76.68137
X0.41869 Y76.83291
X0.57022 Y76.95727
X0.74310 Y77.04970
X0.93070 Y77.10659
X1.12580 Y77.12580
X36.12580 Y77.12580
Z-1.00000
X41.12580 Y77.12580
Z-1.50000 F75.00000
F150.00000
G01 X76.12580 Y77.12580
X76.32087 Y77.10659
X76.50848 Y77.04970
X76.68135 Y76.95727
X76.83289 Y76.83291
X76.95724 Y76.68137
X77.04967 Y76.50850
X77.10657 Y76.32089
X77.12580 Y76.12580
X77.12580 Y41.12581
Z-1.00000
X77.12580 Y36.12581
Z-1.50000 F75.00000
F150.00000
G01 X77.12580 Y1.12582
X77.10657 Y0.93075
X77.04967 Y0.74314
X76.95724 Y0.57027
X76.83289 Y0.41874
X76.68135 Y0.29438
X76.50848 Y0.20195
X76.32087 Y0.14505
X76.12580 Y0.12582
X41.12580 Y0.12582
Z-1.00000
X36.12580 Y0.12582
Z-1.50000 F75.00000
F150.00000
G01 X1.12580 Y0.12582
X0.93070 Y0.14505
X0.74310 Y0.20195
X0.57022 Y0.29438
X0.41869 Y0.41874
X0.29433 Y0.57027
X0.20190 Y0.74314
X0.14500 Y0.93075
X0.12580 Y1.12582

o1 endsub

o1 call
G92 X[#5420-[77.251604]]
o1 call
G92 X[#5420-[77.251604]]
o1 call
G92 Y[#5421-[77.251597]]
o1 call
G92 X[#5420-[-77.251604]]
o1 call
G92 X[#5420-[-77.251604]]
o1 call
G92 Y[#5421-[-77.251597]]

G04 P0 ( dwell for no time -- G64 should not smooth over this point )
G00 Z50.000 ( retract )

M5 ( Spindle off. )
G04 P2.000000
M9 ( Coolant off. )
M2 ( Program end. )

