( pcb2gcode 1.3.2 )
( Software-independent Gcode )

( This file uses 3 drill bit sizes. )
( Bit sizes: [0.8mm] [1mm] [1.15mm] )

G94       (Millimeters per minute feed rate.)
G21       (Units == Millimeters.)
G91.1     (Incremental arc distance mode.)
G90       (Absolute coordinates.)
S6000     (RPM spindle speed.)

G00 Z50.00000 (Retract)
T1
M5      (Spindle stop.)
G04 P2.00000
(MSG, Change tool bit to drill size 0.80000 mm)
M6      (Tool change.)
M0      (Temporary machine stop.)
M3      (Spindle on clockwise.)
G0 Z3.00000
G04 P2.00000

G81 R3.00000 Z-4.00000 F500.00000 X-216.54901 Y29.12580
X-219.08901 Y29.12580
X-221.62901 Y29.12580
X-221.16901 Y43.12580
X-218.62901 Y43.12580
X-218.08901 Y47.12580
X-220.62901 Y47.12580
X-221.16901 Y51.12580
X-218.62901 Y51.12580
X-211.12901 Y53.12580
X-215.12901 Y55.08580
X-215.12901 Y57.62580
X-211.12901 Y63.28580
X-139.29741 Y29.12580
X-141.83741 Y29.12580
X-144.37741 Y29.12580
X-143.91741 Y43.12580
X-141.37741 Y43.12580
X-140.83741 Y47.12580
X-143.37741 Y47.12580
X-143.91741 Y51.12580
X-141.37741 Y51.12580
X-133.87741 Y53.12580
X-137.87741 Y55.08580
X-137.87741 Y57.62580
X-133.87741 Y63.28580
X-62.04580 Y29.12580
X-64.58580 Y29.12580
X-67.12580 Y29.12580
X-66.66580 Y43.12580
X-64.12580 Y43.12580
X-63.58580 Y47.12580
X-66.12580 Y47.12580
X-66.66580 Y51.12580
X-64.12580 Y51.12580
X-56.62580 Y53.12580
X-60.62580 Y55.08580
X-60.62580 Y57.62580
X-56.62580 Y63.28580
X-62.04580 Y106.37739
X-64.58580 Y106.37739
X-67.12580 Y106.37739
X-66.66580 Y120.37739
X-64.12580 Y120.37739
X-63.58580 Y124.37739
X-66.12580 Y124.37739
X-66.66580 Y128.37739
X-64.12580 Y128.37739
X-56.62580 Y130.37739
X-60.62580 Y132.33739
X-60.62580 Y134.87739
X-56.62580 Y140.53739
X-139.29741 Y106.37739
X-141.83741 Y106.37739
X-144.37741 Y106.37739
X-143.91741 Y120.37739
X-141.37741 Y120.37739
X-140.83741 Y124.37739
X-143.37741 Y124.37739
X-143.91741 Y128.37739
X-141.37741 Y128.37739
X-133.87741 Y130.37739
X-137.87741 Y132.33739
X-137.87741 Y134.87739
X-133.87741 Y140.53739
X-216.54901 Y106.37739
X-219.08901 Y106.37739
X-221.62901 Y106.37739
X-221.16901 Y120.37739
X-218.62901 Y120.37739
X-218.08901 Y124.37739
X-220.62901 Y124.37739
X-221.16901 Y128.37739
X-218.62901 Y128.37739
X-211.12901 Y130.37739
X-215.12901 Y132.33739
X-215.12901 Y134.87739
X-211.12901 Y140.53739

G00 Z50.00000 (Retract)
T2
M5      (Spindle stop.)
G04 P2.00000
(MSG, Change tool bit to drill size 1.00000 mm)
M6      (Tool change.)
M0      (Temporary machine stop.)
M3      (Spindle on clockwise.)
G0 Z3.00000
G04 P2.00000

G81 R3.00000 Z-4.00000 F500.00000 X-182.62901 Y17.12580
X-185.16901 Y17.12580
X-187.70901 Y17.12580
X-190.24901 Y17.12580
X-192.78901 Y17.12580
X-195.32901 Y17.12580
X-197.86901 Y17.12580
X-200.40901 Y17.12580
X-212.12901 Y7.12580
X-214.66901 Y7.12580
X-217.20901 Y7.12580
X-221.54901 Y7.12580
X-224.08901 Y7.12580
X-226.62901 Y7.12580
X-219.62901 Y19.62580
X-219.62901 Y22.16580
X-220.62901 Y55.62580
X-220.62901 Y58.12580
X-220.62901 Y60.62580
X-220.62901 Y63.12580
X-180.70901 Y67.12580
X-178.16901 Y67.12580
X-175.62901 Y67.12580
X-180.70901 Y63.12580
X-178.16901 Y63.12580
X-175.62901 Y63.12580
X-172.12901 Y56.90580
X-172.12901 Y54.36580
X-172.12901 Y51.82580
X-172.12901 Y49.28580
X-172.12901 Y46.74580
X-172.12901 Y44.20580
X-172.12901 Y41.66580
X-172.12901 Y39.12580
X-179.12901 Y39.12580
X-179.12901 Y41.66580
X-179.12901 Y44.20580
X-179.12901 Y46.74580
X-179.12901 Y49.28580
X-179.12901 Y51.82580
X-105.37741 Y17.12580
X-107.91741 Y17.12580
X-110.45741 Y17.12580
X-112.99741 Y17.12580
X-115.53741 Y17.12580
X-118.07741 Y17.12580
X-120.61741 Y17.12580
X-123.15741 Y17.12580
X-134.87741 Y7.12580
X-137.41741 Y7.12580
X-139.95741 Y7.12580
X-144.29741 Y7.12580
X-146.83741 Y7.12580
X-149.37741 Y7.12580
X-142.37741 Y19.62580
X-142.37741 Y22.16580
X-143.37741 Y55.62580
X-143.37741 Y58.12580
X-143.37741 Y60.62580
X-143.37741 Y63.12580
X-103.45741 Y67.12580
X-100.91741 Y67.12580
X-98.37741 Y67.12580
X-103.45741 Y63.12580
X-100.91741 Y63.12580
X-98.37741 Y63.12580
X-94.87741 Y56.90580
X-94.87741 Y54.36580
X-94.87741 Y51.82580
X-94.87741 Y49.28580
X-94.87741 Y46.74580
X-94.87741 Y44.20580
X-94.87741 Y41.66580
X-94.87741 Y39.12580
X-101.87741 Y39.12580
X-101.87741 Y41.66580
X-101.87741 Y44.20580
X-101.87741 Y46.74580
X-101.87741 Y49.28580
X-101.87741 Y51.82580
X-28.12580 Y17.12580
X-30.66580 Y17.12580
X-33.20580 Y17.12580
X-35.74580 Y17.12580
X-38.28580 Y17.12580
X-40.82580 Y17.12580
X-43.36580 Y17.12580
X-45.90580 Y17.12580
X-57.62580 Y7.12580
X-60.16580 Y7.12580
X-62.70580 Y7.12580
X-67.04580 Y7.12580
X-69.58580 Y7.12580
X-72.12580 Y7.12580
X-65.12580 Y19.62580
X-65.12580 Y22.16580
X-66.12580 Y55.62580
X-66.12580 Y58.12580
X-66.12580 Y60.62580
X-66.12580 Y63.12580
X-26.20580 Y67.12580
X-23.66580 Y67.12580
X-21.12580 Y67.12580
X-26.20580 Y63.12580
X-23.66580 Y63.12580
X-21.12580 Y63.12580
X-17.62580 Y56.90580
X-17.62580 Y54.36580
X-17.62580 Y51.82580
X-17.62580 Y49.28580
X-17.62580 Y46.74580
X-17.62580 Y44.20580
X-17.62580 Y41.66580
X-17.62580 Y39.12580
X-24.62580 Y39.12580
X-24.62580 Y41.66580
X-24.62580 Y44.20580
X-24.62580 Y46.74580
X-24.62580 Y49.28580
X-24.62580 Y51.82580
X-28.12580 Y94.37739
X-30.66580 Y94.37739
X-33.20580 Y94.37739
X-35.74580 Y94.37739
X-38.28580 Y94.37739
X-40.82580 Y94.37739
X-43.36580 Y94.37739
X-45.90580 Y94.37739
X-57.62580 Y84.37739
X-60.16580 Y84.37739
X-62.70580 Y84.37739
X-67.04580 Y84.37739
X-69.58580 Y84.37739
X-72.12580 Y84.37739
X-65.12580 Y96.87739
X-65.12580 Y99.41739
X-66.12580 Y132.87739
X-66.12580 Y135.37739
X-66.12580 Y137.87739
X-66.12580 Y140.37739
X-26.20580 Y144.37739
X-23.66580 Y144.37739
X-21.12580 Y144.37739
X-26.20580 Y140.37739
X-23.66580 Y140.37739
X-21.12580 Y140.37739
X-17.62580 Y134.15739
X-17.62580 Y131.61739
X-17.62580 Y129.07739
X-17.62580 Y126.53739
X-17.62580 Y123.99739
X-17.62580 Y121.45739
X-17.62580 Y118.91739
X-17.62580 Y116.37739
X-24.62580 Y116.37739
X-24.62580 Y118.91739
X-24.62580 Y121.45739
X-24.62580 Y123.99739
X-24.62580 Y126.53739
X-24.62580 Y129.07739
X-105.37741 Y94.37739
X-107.91741 Y94.37739
X-110.45741 Y94.37739
X-112.99741 Y94.37739
X-115.53741 Y94.37739
X-118.07741 Y94.37739
X-120.61741 Y94.37739
X-123.15741 Y94.37739
X-134.87741 Y84.37739
X-137.41741 Y84.37739
X-139.95741 Y84.37739
X-144.29741 Y84.37739
X-146.83741 Y84.37739
X-149.37741 Y84.37739
X-142.37741 Y96.87739
X-142.37741 Y99.41739
X-143.37741 Y132.87739
X-143.37741 Y135.37739
X-143.37741 Y137.87739
X-143.37741 Y140.37739
X-103.45741 Y144.37739
X-100.91741 Y144.37739
X-98.37741 Y144.37739
X-103.45741 Y140.37739
X-100.91741 Y140.37739
X-98.37741 Y140.37739
X-94.87741 Y134.15739
X-94.87741 Y131.61739
X-94.87741 Y129.07739
X-94.87741 Y126.53739
X-94.87741 Y123.99739
X-94.87741 Y121.45739
X-94.87741 Y118.91739
X-94.87741 Y116.37739
X-101.87741 Y116.37739
X-101.87741 Y118.91739
X-101.87741 Y121.45739
X-101.87741 Y123.99739
X-101.87741 Y126.53739
X-101.87741 Y129.07739
X-182.62901 Y94.37739
X-185.16901 Y94.37739
X-187.70901 Y94.37739
X-190.24901 Y94.37739
X-192.78901 Y94.37739
X-195.32901 Y94.37739
X-197.86901 Y94.37739
X-200.40901 Y94.37739
X-212.12901 Y84.37739
X-214.66901 Y84.37739
X-217.20901 Y84.37739
X-221.54901 Y84.37739
X-224.08901 Y84.37739
X-226.62901 Y84.37739
X-219.62901 Y96.87739
X-219.62901 Y99.41739
X-220.62901 Y132.87739
X-220.62901 Y135.37739
X-220.62901 Y137.87739
X-220.62901 Y140.37739
X-180.70901 Y144.37739
X-178.16901 Y144.37739
X-175.62901 Y144.37739
X-180.70901 Y140.37739
X-178.16901 Y140.37739
X-175.62901 Y140.37739
X-172.12901 Y134.15739
X-172.12901 Y131.61739
X-172.12901 Y129.07739
X-172.12901 Y126.53739
X-172.12901 Y123.99739
X-172.12901 Y121.45739
X-172.12901 Y118.91739
X-172.12901 Y116.37739
X-179.12901 Y116.37739
X-179.12901 Y118.91739
X-179.12901 Y121.45739
X-179.12901 Y123.99739
X-179.12901 Y126.53739
X-179.12901 Y129.07739

G00 Z50.00000 (Retract)
T3
M5      (Spindle stop.)
G04 P2.00000
(MSG, Change tool bit to drill size 1.15000 mm)
M6      (Tool change.)
M0      (Temporary machine stop.)
M3      (Spindle on clockwise.)
G0 Z3.00000
G04 P2.00000

G81 R3.00000 Z-4.00000 F500.00000 X-185.62901 Y30.06580
X-185.62901 Y32.60580
X-185.62901 Y35.14580
X-185.62901 Y37.68580
X-185.62901 Y40.22580
X-185.62901 Y42.76580
X-185.62901 Y45.30580
X-185.62901 Y47.84580
X-185.62901 Y50.38580
X-185.62901 Y52.92580
X-185.62901 Y55.46580
X-185.62901 Y58.00580
X-185.62901 Y60.54580
X-185.62901 Y63.08580
X-185.62901 Y65.62580
X-200.86901 Y65.62580
X-200.86901 Y63.08580
X-200.86901 Y60.54580
X-200.86901 Y58.00580
X-200.86901 Y55.46580
X-200.86901 Y52.92580
X-200.86901 Y50.38580
X-200.86901 Y47.84580
X-200.86901 Y45.30580
X-200.86901 Y42.76580
X-200.86901 Y40.22580
X-200.86901 Y37.68580
X-200.86901 Y35.14580
X-200.86901 Y32.60580
X-200.86901 Y30.06580
X-108.37741 Y30.06580
X-108.37741 Y32.60580
X-108.37741 Y35.14580
X-108.37741 Y37.68580
X-108.37741 Y40.22580
X-108.37741 Y42.76580
X-108.37741 Y45.30580
X-108.37741 Y47.84580
X-108.37741 Y50.38580
X-108.37741 Y52.92580
X-108.37741 Y55.46580
X-108.37741 Y58.00580
X-108.37741 Y60.54580
X-108.37741 Y63.08580
X-108.37741 Y65.62580
X-123.61741 Y65.62580
X-123.61741 Y63.08580
X-123.61741 Y60.54580
X-123.61741 Y58.00580
X-123.61741 Y55.46580
X-123.61741 Y52.92580
X-123.61741 Y50.38580
X-123.61741 Y47.84580
X-123.61741 Y45.30580
X-123.61741 Y42.76580
X-123.61741 Y40.22580
X-123.61741 Y37.68580
X-123.61741 Y35.14580
X-123.61741 Y32.60580
X-123.61741 Y30.06580
X-31.12580 Y30.06580
X-31.12580 Y32.60580
X-31.12580 Y35.14580
X-31.12580 Y37.68580
X-31.12580 Y40.22580
X-31.12580 Y42.76580
X-31.12580 Y45.30580
X-31.12580 Y47.84580
X-31.12580 Y50.38580
X-31.12580 Y52.92580
X-31.12580 Y55.46580
X-31.12580 Y58.00580
X-31.12580 Y60.54580
X-31.12580 Y63.08580
X-31.12580 Y65.62580
X-46.36580 Y65.62580
X-46.36580 Y63.08580
X-46.36580 Y60.54580
X-46.36580 Y58.00580
X-46.36580 Y55.46580
X-46.36580 Y52.92580
X-46.36580 Y50.38580
X-46.36580 Y47.84580
X-46.36580 Y45.30580
X-46.36580 Y42.76580
X-46.36580 Y40.22580
X-46.36580 Y37.68580
X-46.36580 Y35.14580
X-46.36580 Y32.60580
X-46.36580 Y30.06580
X-31.12580 Y107.31739
X-31.12580 Y109.85739
X-31.12580 Y112.39739
X-31.12580 Y114.93739
X-31.12580 Y117.47739
X-31.12580 Y120.01739
X-31.12580 Y122.55739
X-31.12580 Y125.09739
X-31.12580 Y127.63739
X-31.12580 Y130.17739
X-31.12580 Y132.71739
X-31.12580 Y135.25739
X-31.12580 Y137.79739
X-31.12580 Y140.33739
X-31.12580 Y142.87739
X-46.36580 Y142.87739
X-46.36580 Y140.33739
X-46.36580 Y137.79739
X-46.36580 Y135.25739
X-46.36580 Y132.71739
X-46.36580 Y130.17739
X-46.36580 Y127.63739
X-46.36580 Y125.09739
X-46.36580 Y122.55739
X-46.36580 Y120.01739
X-46.36580 Y117.47739
X-46.36580 Y114.93739
X-46.36580 Y112.39739
X-46.36580 Y109.85739
X-46.36580 Y107.31739
X-108.37741 Y107.31739
X-108.37741 Y109.85739
X-108.37741 Y112.39739
X-108.37741 Y114.93739
X-108.37741 Y117.47739
X-108.37741 Y120.01739
X-108.37741 Y122.55739
X-108.37741 Y125.09739
X-108.37741 Y127.63739
X-108.37741 Y130.17739
X-108.37741 Y132.71739
X-108.37741 Y135.25739
X-108.37741 Y137.79739
X-108.37741 Y140.33739
X-108.37741 Y142.87739
X-123.61741 Y142.87739
X-123.61741 Y140.33739
X-123.61741 Y137.79739
X-123.61741 Y135.25739
X-123.61741 Y132.71739
X-123.61741 Y130.17739
X-123.61741 Y127.63739
X-123.61741 Y125.09739
X-123.61741 Y122.55739
X-123.61741 Y120.01739
X-123.61741 Y117.47739
X-123.61741 Y114.93739
X-123.61741 Y112.39739
X-123.61741 Y109.85739
X-123.61741 Y107.31739
X-185.62901 Y107.31739
X-185.62901 Y109.85739
X-185.62901 Y112.39739
X-185.62901 Y114.93739
X-185.62901 Y117.47739
X-185.62901 Y120.01739
X-185.62901 Y122.55739
X-185.62901 Y125.09739
X-185.62901 Y127.63739
X-185.62901 Y130.17739
X-185.62901 Y132.71739
X-185.62901 Y135.25739
X-185.62901 Y137.79739
X-185.62901 Y140.33739
X-185.62901 Y142.87739
X-200.86901 Y142.87739
X-200.86901 Y140.33739
X-200.86901 Y137.79739
X-200.86901 Y135.25739
X-200.86901 Y132.71739
X-200.86901 Y130.17739
X-200.86901 Y127.63739
X-200.86901 Y125.09739
X-200.86901 Y122.55739
X-200.86901 Y120.01739
X-200.86901 Y117.47739
X-200.86901 Y114.93739
X-200.86901 Y112.39739
X-200.86901 Y109.85739
X-200.86901 Y107.31739

G00 Z50.000 ( All done -- retract )

M5      (Spindle off.)
G04 P2.000000
M9      (Coolant off.)
M2      (Program end.)

