( pcb2gcode 1.3.2 )
( Gcode for linuxcnc )

G94 ( Millimeters per minute feed rate. )
G21 ( Units == Millimeters. )

G90 ( Absolute coordinates. )
S6000 ( RPM spindle speed. )
G64 P0.01016 ( set maximum deviation from commanded toolpath )
F500.00000 ( Feedrate. )

F500.00000 ( Feedrate. )
M3 ( Spindle on clockwise. )
G04 P2.00000

o1 sub ( Main subroutine )

G04 P0 ( dwell for no time -- G64 should not smooth over this point )
G00 Z3.00000 ( retract )

G00 X16.67581 Y38.27584 ( rapid move to begin. )
F250.00000
G01 Z-0.10000
G04 P0 ( dwell for no time -- G64 should not smooth over this point )
F500.00000
G01 X16.67581 Y38.27584
X16.67581 Y39.97581
X16.70509 Y40.04652
X16.77581 Y40.07581
X18.47578 Y40.07581
X18.54646 Y40.04652
X18.57578 Y39.97581
X18.57578 Y38.27584
X18.54646 Y38.20515
X18.47578 Y38.17584
X16.77581 Y38.17584
X16.70509 Y38.20515
X16.67581 Y38.27584
G04 P0 ( dwell for no time -- G64 should not smooth over this point )
G00 Z3.00000 ( retract )

G00 X16.67702 Y41.70379 ( rapid move to begin. )
F250.00000
G01 Z-0.10000
G04 P0 ( dwell for no time -- G64 should not smooth over this point )
F500.00000
G01 X16.67702 Y41.70379
X16.70410 Y41.89401
X16.76887 Y42.07486
X16.86879 Y42.23900
X16.99966 Y42.37966
X17.15614 Y42.49109
X17.33191 Y42.56874
X17.51967 Y42.60941
X17.63590 Y42.61530
X17.82681 Y42.59381
X18.00948 Y42.53437
X18.17646 Y42.43935
X18.32091 Y42.31266
X18.43689 Y42.15947
X18.51964 Y41.98611
X18.56277 Y41.81962
X18.57453 Y41.62787
X18.54746 Y41.43765
X18.48269 Y41.25680
X18.38276 Y41.09267
X18.25190 Y40.95200
X18.09541 Y40.84057
X17.91964 Y40.76293
X17.73189 Y40.72226
X17.61566 Y40.71637
X17.42475 Y40.73786
X17.24207 Y40.79729
X17.07509 Y40.89231
X16.93064 Y41.01901
X16.81467 Y41.17220
X16.73191 Y41.34555
X16.68878 Y41.51205
X16.67702 Y41.70379
G04 P0 ( dwell for no time -- G64 should not smooth over this point )
G00 Z3.00000 ( retract )

G00 X16.67702 Y44.24379 ( rapid move to begin. )
F250.00000
G01 Z-0.10000
G04 P0 ( dwell for no time -- G64 should not smooth over this point )
F500.00000
G01 X16.67702 Y44.24379
X16.70410 Y44.43401
X16.76887 Y44.61486
X16.86879 Y44.77900
X16.99966 Y44.91966
X17.15614 Y45.03109
X17.33191 Y45.10874
X17.51967 Y45.14941
X17.63590 Y45.15530
X17.82681 Y45.13381
X18.00948 Y45.07437
X18.17646 Y44.97935
X18.32091 Y44.85266
X18.43689 Y44.69947
X18.51964 Y44.52611
X18.56277 Y44.35962
X18.57453 Y44.16787
X18.54746 Y43.97765
X18.48269 Y43.79680
X18.38276 Y43.63267
X18.25190 Y43.49200
X18.09541 Y43.38057
X17.91964 Y43.30293
X17.73189 Y43.26226
X17.61566 Y43.25637
X17.42475 Y43.27786
X17.24207 Y43.33729
X17.07509 Y43.43231
X16.93064 Y43.55901
X16.81467 Y43.71220
X16.73191 Y43.88555
X16.68878 Y44.05205
X16.67702 Y44.24379
G04 P0 ( dwell for no time -- G64 should not smooth over this point )
G00 Z3.00000 ( retract )

G00 X16.67702 Y46.78379 ( rapid move to begin. )
F250.00000
G01 Z-0.10000
G04 P0 ( dwell for no time -- G64 should not smooth over this point )
F500.00000
G01 X16.67702 Y46.78379
X16.70410 Y46.97401
X16.76887 Y47.15486
X16.86879 Y47.31900
X16.99966 Y47.45966
X17.15614 Y47.57109
X17.33191 Y47.64874
X17.51967 Y47.68941
X17.63590 Y47.69530
X17.82681 Y47.67381
X18.00948 Y47.61437
X18.17646 Y47.51935
X18.32091 Y47.39266
X18.43689 Y47.23947
X18.51964 Y47.06611
X18.56277 Y46.89962
X18.57453 Y46.70787
X18.54746 Y46.51765
X18.48269 Y46.33680
X18.38276 Y46.17267
X18.25190 Y46.03200
X18.09541 Y45.92057
X17.91964 Y45.84293
X17.73189 Y45.80226
X17.61566 Y45.79637
X17.42475 Y45.81786
X17.24207 Y45.87729
X17.07509 Y45.97231
X16.93064 Y46.09901
X16.81467 Y46.25220
X16.73191 Y46.42555
X16.68878 Y46.59205
X16.67702 Y46.78379
G04 P0 ( dwell for no time -- G64 should not smooth over this point )
G00 Z3.00000 ( retract )

G00 X16.67702 Y49.32379 ( rapid move to begin. )
F250.00000
G01 Z-0.10000
G04 P0 ( dwell for no time -- G64 should not smooth over this point )
F500.00000
G01 X16.67702 Y49.32379
X16.70410 Y49.51401
X16.76887 Y49.69486
X16.86879 Y49.85900
X16.99966 Y49.99966
X17.15614 Y50.11109
X17.33191 Y50.18874
X17.51967 Y50.22941
X17.63590 Y50.23530
X17.82681 Y50.21381
X18.00948 Y50.15437
X18.17646 Y50.05935
X18.32091 Y49.93266
X18.43689 Y49.77947
X18.51964 Y49.60611
X18.56277 Y49.43962
X18.57453 Y49.24787
X18.54746 Y49.05765
X18.48269 Y48.87680
X18.38276 Y48.71267
X18.25190 Y48.57200
X18.09541 Y48.46057
X17.91964 Y48.38293
X17.73189 Y48.34226
X17.61566 Y48.33637
X17.42475 Y48.35786
X17.24207 Y48.41729
X17.07509 Y48.51231
X16.93064 Y48.63901
X16.81467 Y48.79220
X16.73191 Y48.96555
X16.68878 Y49.13205
X16.67702 Y49.32379
G04 P0 ( dwell for no time -- G64 should not smooth over this point )
G00 Z3.00000 ( retract )

G00 X16.67702 Y51.86379 ( rapid move to begin. )
F250.00000
G01 Z-0.10000
G04 P0 ( dwell for no time -- G64 should not smooth over this point )
F500.00000
G01 X16.67702 Y51.86379
X16.70410 Y52.05401
X16.76887 Y52.23486
X16.86879 Y52.39900
X16.99966 Y52.53966
X17.15614 Y52.65109
X17.33191 Y52.72874
X17.51967 Y52.76941
X17.63590 Y52.77530
X17.82681 Y52.75381
X18.00948 Y52.69437
X18.17646 Y52.59935
X18.32091 Y52.47266
X18.43689 Y52.31947
X18.51964 Y52.14611
X18.56277 Y51.97962
X18.57453 Y51.78787
X18.54746 Y51.59765
X18.48269 Y51.41680
X18.38276 Y51.25267
X18.25190 Y51.11200
X18.09541 Y51.00057
X17.91964 Y50.92293
X17.73189 Y50.88226
X17.61566 Y50.87637
X17.42475 Y50.89786
X17.24207 Y50.95729
X17.07509 Y51.05231
X16.93064 Y51.17901
X16.81467 Y51.33220
X16.73191 Y51.50555
X16.68878 Y51.67205
X16.67702 Y51.86379
G04 P0 ( dwell for no time -- G64 should not smooth over this point )
G00 Z3.00000 ( retract )

G00 X16.67702 Y54.40379 ( rapid move to begin. )
F250.00000
G01 Z-0.10000
G04 P0 ( dwell for no time -- G64 should not smooth over this point )
F500.00000
G01 X16.67702 Y54.40379
X16.70410 Y54.59401
X16.76887 Y54.77486
X16.86879 Y54.93900
X16.99966 Y55.07966
X17.15614 Y55.19109
X17.33191 Y55.26874
X17.51967 Y55.30941
X17.63590 Y55.31530
X17.82681 Y55.29381
X18.00948 Y55.23437
X18.17646 Y55.13935
X18.32091 Y55.01266
X18.43689 Y54.85947
X18.51964 Y54.68611
X18.56277 Y54.51962
X18.57453 Y54.32787
X18.54746 Y54.13765
X18.48269 Y53.95680
X18.38276 Y53.79267
X18.25190 Y53.65200
X18.09541 Y53.54057
X17.91964 Y53.46293
X17.73189 Y53.42226
X17.61566 Y53.41637
X17.42475 Y53.43786
X17.24207 Y53.49729
X17.07509 Y53.59231
X16.93064 Y53.71901
X16.81467 Y53.87220
X16.73191 Y54.04555
X16.68878 Y54.21205
X16.67702 Y54.40379
G04 P0 ( dwell for no time -- G64 should not smooth over this point )
G00 Z3.00000 ( retract )

G00 X16.67702 Y56.94379 ( rapid move to begin. )
F250.00000
G01 Z-0.10000
G04 P0 ( dwell for no time -- G64 should not smooth over this point )
F500.00000
G01 X16.67702 Y56.94379
X16.70410 Y57.13401
X16.76887 Y57.31486
X16.86879 Y57.47900
X16.99966 Y57.61966
X17.15614 Y57.73109
X17.33191 Y57.80874
X17.51967 Y57.84941
X17.63590 Y57.85530
X17.82681 Y57.83381
X18.00948 Y57.77437
X18.17646 Y57.67935
X18.32091 Y57.55266
X18.43689 Y57.39947
X18.51964 Y57.22611
X18.56277 Y57.05962
X18.57453 Y56.86787
X18.54746 Y56.67765
X18.48269 Y56.49680
X18.38276 Y56.33267
X18.25190 Y56.19200
X18.09541 Y56.08057
X17.91964 Y56.00293
X17.73189 Y55.96226
X17.61566 Y55.95637
X17.42475 Y55.97786
X17.24207 Y56.03729
X17.07509 Y56.13231
X16.93064 Y56.25901
X16.81467 Y56.41220
X16.73191 Y56.58555
X16.68878 Y56.75205
X16.67702 Y56.94379
G04 P0 ( dwell for no time -- G64 should not smooth over this point )
G00 Z3.00000 ( retract )

G00 X20.17580 Y62.27581 ( rapid move to begin. )
F250.00000
G01 Z-0.10000
G04 P0 ( dwell for no time -- G64 should not smooth over this point )
F500.00000
G01 X20.17580 Y62.27581
X20.17580 Y63.97578
X20.20508 Y64.04650
X20.27580 Y64.07578
X21.97577 Y64.07578
X22.04646 Y64.04650
X22.07577 Y63.97578
X22.07577 Y62.27581
X22.04646 Y62.20512
X21.97577 Y62.17581
X20.27580 Y62.17581
X20.20508 Y62.20512
X20.17580 Y62.27581
G04 P0 ( dwell for no time -- G64 should not smooth over this point )
G00 Z3.00000 ( retract )

G00 X22.71702 Y63.16377 ( rapid move to begin. )
F250.00000
G01 Z-0.10000
G04 P0 ( dwell for no time -- G64 should not smooth over this point )
F500.00000
G01 X22.71702 Y63.16377
X22.74409 Y63.35399
X22.80886 Y63.53484
X22.90879 Y63.69897
X23.03965 Y63.83964
X23.19614 Y63.95107
X23.37191 Y64.02872
X23.55966 Y64.06938
X23.67589 Y64.07528
X23.86680 Y64.05379
X24.04948 Y63.99435
X24.21646 Y63.89933
X24.36091 Y63.77263
X24.47688 Y63.61945
X24.55964 Y63.44609
X24.60276 Y63.27960
X24.61452 Y63.08785
X24.58745 Y62.89763
X24.52268 Y62.71678
X24.42275 Y62.55265
X24.29189 Y62.41198
X24.13540 Y62.30055
X23.95964 Y62.22290
X23.77188 Y62.18224
X23.65565 Y62.17635
X23.46474 Y62.19783
X23.28207 Y62.25727
X23.11509 Y62.35229
X22.97064 Y62.47899
X22.85466 Y62.63217
X22.77191 Y62.80553
X22.72878 Y62.97203
X22.71702 Y63.16377
G04 P0 ( dwell for no time -- G64 should not smooth over this point )
G00 Z3.00000 ( retract )

G00 X25.25702 Y63.16377 ( rapid move to begin. )
F250.00000
G01 Z-0.10000
G04 P0 ( dwell for no time -- G64 should not smooth over this point )
F500.00000
G01 X25.25702 Y63.16377
X25.28409 Y63.35399
X25.34886 Y63.53484
X25.44879 Y63.69897
X25.57965 Y63.83964
X25.73614 Y63.95107
X25.91191 Y64.02872
X26.09966 Y64.06938
X26.21589 Y64.07528
X26.40680 Y64.05379
X26.58948 Y63.99435
X26.75646 Y63.89933
X26.90091 Y63.77263
X27.01688 Y63.61945
X27.09964 Y63.44609
X27.14276 Y63.27960
X27.15452 Y63.08785
X27.12745 Y62.89763
X27.06268 Y62.71678
X26.96275 Y62.55265
X26.83189 Y62.41198
X26.67540 Y62.30055
X26.49964 Y62.22290
X26.31188 Y62.18224
X26.19565 Y62.17635
X26.00474 Y62.19783
X25.82207 Y62.25727
X25.65509 Y62.35229
X25.51064 Y62.47899
X25.39466 Y62.63217
X25.31191 Y62.80553
X25.26878 Y62.97203
X25.25702 Y63.16377
G04 P0 ( dwell for no time -- G64 should not smooth over this point )
G00 Z3.00000 ( retract )

G00 X20.17580 Y66.27583 ( rapid move to begin. )
F250.00000
G01 Z-0.10000
G04 P0 ( dwell for no time -- G64 should not smooth over this point )
F500.00000
G01 X20.17580 Y66.27583
X20.17580 Y67.97580
X20.20508 Y68.04651
X20.27580 Y68.07580
X21.97577 Y68.07580
X22.04646 Y68.04651
X22.07577 Y67.97580
X22.07577 Y66.27583
X22.04646 Y66.20514
X21.97577 Y66.17583
X20.27580 Y66.17583
X20.20508 Y66.20514
X20.17580 Y66.27583
G04 P0 ( dwell for no time -- G64 should not smooth over this point )
G00 Z3.00000 ( retract )

G00 X22.71702 Y67.16379 ( rapid move to begin. )
F250.00000
G01 Z-0.10000
G04 P0 ( dwell for no time -- G64 should not smooth over this point )
F500.00000
G01 X22.71702 Y67.16379
X22.74409 Y67.35401
X22.80886 Y67.53486
X22.90879 Y67.69899
X23.03965 Y67.83966
X23.19614 Y67.95109
X23.37191 Y68.02873
X23.55966 Y68.06940
X23.67589 Y68.07529
X23.86680 Y68.05380
X24.04948 Y67.99437
X24.21646 Y67.89935
X24.36091 Y67.77265
X24.47688 Y67.61946
X24.55964 Y67.44611
X24.60276 Y67.27961
X24.61452 Y67.08787
X24.58745 Y66.89765
X24.52268 Y66.71680
X24.42275 Y66.55266
X24.29189 Y66.41200
X24.13540 Y66.30057
X23.95964 Y66.22292
X23.77188 Y66.18226
X23.65565 Y66.17636
X23.46474 Y66.19785
X23.28207 Y66.25729
X23.11509 Y66.35231
X22.97064 Y66.47900
X22.85466 Y66.63219
X22.77191 Y66.80555
X22.72878 Y66.97204
X22.71702 Y67.16379
G04 P0 ( dwell for no time -- G64 should not smooth over this point )
G00 Z3.00000 ( retract )

G00 X25.25702 Y67.16379 ( rapid move to begin. )
F250.00000
G01 Z-0.10000
G04 P0 ( dwell for no time -- G64 should not smooth over this point )
F500.00000
G01 X25.25702 Y67.16379
X25.28409 Y67.35401
X25.34886 Y67.53486
X25.44879 Y67.69899
X25.57965 Y67.83966
X25.73614 Y67.95109
X25.91191 Y68.02873
X26.09966 Y68.06940
X26.21589 Y68.07529
X26.40680 Y68.05380
X26.58948 Y67.99437
X26.75646 Y67.89935
X26.90091 Y67.77265
X27.01688 Y67.61946
X27.09964 Y67.44611
X27.14276 Y67.27961
X27.15452 Y67.08787
X27.12745 Y66.89765
X27.06268 Y66.71680
X26.96275 Y66.55266
X26.83189 Y66.41200
X26.67540 Y66.30057
X26.49964 Y66.22292
X26.31188 Y66.18226
X26.19565 Y66.17636
X26.00474 Y66.19785
X25.82207 Y66.25729
X25.65509 Y66.35231
X25.51064 Y66.47900
X25.39466 Y66.63219
X25.31191 Y66.80555
X25.26878 Y66.97204
X25.25702 Y67.16379
G04 P0 ( dwell for no time -- G64 should not smooth over this point )
G00 Z3.00000 ( retract )

G00 X30.16331 Y64.76334 ( rapid move to begin. )
F250.00000
G01 Z-0.10000
G04 P0 ( dwell for no time -- G64 should not smooth over this point )
F500.00000
G01 X30.16331 Y64.76334
X30.16331 Y66.48830
X30.19259 Y66.55901
X30.26331 Y66.58830
X31.98827 Y66.58830
X32.05896 Y66.55901
X32.08827 Y66.48830
X32.08827 Y64.76334
X32.05896 Y64.69265
X31.98827 Y64.66334
X30.26331 Y64.66334
X30.19259 Y64.69265
X30.16331 Y64.76334
G04 P0 ( dwell for no time -- G64 should not smooth over this point )
G00 Z3.00000 ( retract )

G00 X30.16331 Y63.08582 ( rapid move to begin. )
F250.00000
G01 Z-0.10000
G04 P0 ( dwell for no time -- G64 should not smooth over this point )
F500.00000
G01 X30.16331 Y63.08582
X30.18434 Y62.88574
X30.24276 Y62.70413
X30.34710 Y62.52008
X30.47436 Y62.37797
X30.65386 Y62.24754
X30.83846 Y62.16776
X31.03564 Y62.12806
X31.22637 Y62.12862
X31.43298 Y62.17421
X31.60702 Y62.25229
X31.77720 Y62.37797
X31.90445 Y62.52008
X32.00879 Y62.70413
X32.06721 Y62.88574
X32.08827 Y63.08582
X32.06721 Y63.28592
X32.00879 Y63.46753
X31.90445 Y63.65158
X31.77720 Y63.79369
X31.59770 Y63.92412
X31.41309 Y64.00390
X31.21593 Y64.04358
X31.02518 Y64.04304
X30.81858 Y63.99745
X30.64454 Y63.91937
X30.47436 Y63.79369
X30.34710 Y63.65158
X30.24276 Y63.46753
X30.18434 Y63.28592
X30.16331 Y63.08582
G04 P0 ( dwell for no time -- G64 should not smooth over this point )
G00 Z3.00000 ( retract )

G00 X30.16331 Y60.54582 ( rapid move to begin. )
F250.00000
G01 Z-0.10000
G04 P0 ( dwell for no time -- G64 should not smooth over this point )
F500.00000
G01 X30.16331 Y60.54582
X30.18434 Y60.34574
X30.24276 Y60.16413
X30.34710 Y59.98008
X30.47436 Y59.83797
X30.65386 Y59.70754
X30.83846 Y59.62776
X31.03564 Y59.58806
X31.22637 Y59.58862
X31.43298 Y59.63421
X31.60702 Y59.71229
X31.77720 Y59.83797
X31.90445 Y59.98008
X32.00879 Y60.16413
X32.06721 Y60.34574
X32.08827 Y60.54582
X32.06721 Y60.74592
X32.00879 Y60.92753
X31.90445 Y61.11158
X31.77720 Y61.25369
X31.59770 Y61.38412
X31.41309 Y61.46390
X31.21593 Y61.50358
X31.02518 Y61.50304
X30.81858 Y61.45745
X30.64454 Y61.37937
X30.47436 Y61.25369
X30.34710 Y61.11158
X30.24276 Y60.92753
X30.18434 Y60.74592
X30.16331 Y60.54582
G04 P0 ( dwell for no time -- G64 should not smooth over this point )
G00 Z3.00000 ( retract )

G00 X30.16331 Y58.00582 ( rapid move to begin. )
F250.00000
G01 Z-0.10000
G04 P0 ( dwell for no time -- G64 should not smooth over this point )
F500.00000
G01 X30.16331 Y58.00582
X30.18434 Y57.80574
X30.24276 Y57.62413
X30.34710 Y57.44008
X30.47436 Y57.29797
X30.65386 Y57.16754
X30.83846 Y57.08776
X31.03564 Y57.04806
X31.22637 Y57.04862
X31.43298 Y57.09421
X31.60702 Y57.17229
X31.77720 Y57.29797
X31.90445 Y57.44008
X32.00879 Y57.62413
X32.06721 Y57.80574
X32.08827 Y58.00582
X32.06721 Y58.20592
X32.00879 Y58.38753
X31.90445 Y58.57158
X31.77720 Y58.71369
X31.59770 Y58.84412
X31.41309 Y58.92390
X31.21593 Y58.96358
X31.02518 Y58.96304
X30.81858 Y58.91745
X30.64454 Y58.83937
X30.47436 Y58.71369
X30.34710 Y58.57158
X30.24276 Y58.38753
X30.18434 Y58.20592
X30.16331 Y58.00582
G04 P0 ( dwell for no time -- G64 should not smooth over this point )
G00 Z3.00000 ( retract )

G00 X30.16331 Y55.46582 ( rapid move to begin. )
F250.00000
G01 Z-0.10000
G04 P0 ( dwell for no time -- G64 should not smooth over this point )
F500.00000
G01 X30.16331 Y55.46582
X30.18434 Y55.26574
X30.24276 Y55.08413
X30.34710 Y54.90008
X30.47436 Y54.75797
X30.65386 Y54.62754
X30.83846 Y54.54776
X31.03564 Y54.50806
X31.22637 Y54.50862
X31.43298 Y54.55421
X31.60702 Y54.63229
X31.77720 Y54.75797
X31.90445 Y54.90008
X32.00879 Y55.08413
X32.06721 Y55.26574
X32.08827 Y55.46582
X32.06721 Y55.66592
X32.00879 Y55.84753
X31.90445 Y56.03158
X31.77720 Y56.17369
X31.59770 Y56.30412
X31.41309 Y56.38390
X31.21593 Y56.42358
X31.02518 Y56.42304
X30.81858 Y56.37745
X30.64454 Y56.29937
X30.47436 Y56.17369
X30.34710 Y56.03158
X30.24276 Y55.84753
X30.18434 Y55.66592
X30.16331 Y55.46582
G04 P0 ( dwell for no time -- G64 should not smooth over this point )
G00 Z3.00000 ( retract )

G00 X23.67704 Y51.86379 ( rapid move to begin. )
F250.00000
G01 Z-0.10000
G04 P0 ( dwell for no time -- G64 should not smooth over this point )
F500.00000
G01 X23.67704 Y51.86379
X23.70411 Y52.05401
X23.76888 Y52.23486
X23.86881 Y52.39900
X23.99967 Y52.53966
X24.15616 Y52.65109
X24.33192 Y52.72874
X24.51968 Y52.76941
X24.63591 Y52.77530
X24.82682 Y52.75381
X25.00949 Y52.69437
X25.17647 Y52.59935
X25.32092 Y52.47266
X25.43690 Y52.31947
X25.51965 Y52.14611
X25.56278 Y51.97962
X25.57454 Y51.78787
X25.54747 Y51.59765
X25.48270 Y51.41680
X25.38277 Y51.25267
X25.25191 Y51.11200
X25.09542 Y51.00057
X24.91965 Y50.92293
X24.73190 Y50.88226
X24.61567 Y50.87637
X24.42476 Y50.89786
X24.24208 Y50.95729
X24.07510 Y51.05231
X23.93065 Y51.17901
X23.81468 Y51.33220
X23.73193 Y51.50555
X23.68880 Y51.67205
X23.67704 Y51.86379
G04 P0 ( dwell for no time -- G64 should not smooth over this point )
G00 Z3.00000 ( retract )

G00 X23.67704 Y49.32379 ( rapid move to begin. )
F250.00000
G01 Z-0.10000
G04 P0 ( dwell for no time -- G64 should not smooth over this point )
F500.00000
G01 X23.67704 Y49.32379
X23.70411 Y49.51401
X23.76888 Y49.69486
X23.86881 Y49.85900
X23.99967 Y49.99966
X24.15616 Y50.11109
X24.33192 Y50.18874
X24.51968 Y50.22941
X24.63591 Y50.23530
X24.82682 Y50.21381
X25.00949 Y50.15437
X25.17647 Y50.05935
X25.32092 Y49.93266
X25.43690 Y49.77947
X25.51965 Y49.60611
X25.56278 Y49.43962
X25.57454 Y49.24787
X25.54747 Y49.05765
X25.48270 Y48.87680
X25.38277 Y48.71267
X25.25191 Y48.57200
X25.09542 Y48.46057
X24.91965 Y48.38293
X24.73190 Y48.34226
X24.61567 Y48.33637
X24.42476 Y48.35786
X24.24208 Y48.41729
X24.07510 Y48.51231
X23.93065 Y48.63901
X23.81468 Y48.79220
X23.73193 Y48.96555
X23.68880 Y49.13205
X23.67704 Y49.32379
G04 P0 ( dwell for no time -- G64 should not smooth over this point )
G00 Z3.00000 ( retract )

G00 X23.67704 Y46.78379 ( rapid move to begin. )
F250.00000
G01 Z-0.10000
G04 P0 ( dwell for no time -- G64 should not smooth over this point )
F500.00000
G01 X23.67704 Y46.78379
X23.70411 Y46.97401
X23.76888 Y47.15486
X23.86881 Y47.31900
X23.99967 Y47.45966
X24.15616 Y47.57109
X24.33192 Y47.64874
X24.51968 Y47.68941
X24.63591 Y47.69530
X24.82682 Y47.67381
X25.00949 Y47.61437
X25.17647 Y47.51935
X25.32092 Y47.39266
X25.43690 Y47.23947
X25.51965 Y47.06611
X25.56278 Y46.89962
X25.57454 Y46.70787
X25.54747 Y46.51765
X25.48270 Y46.33680
X25.38277 Y46.17267
X25.25191 Y46.03200
X25.09542 Y45.92057
X24.91965 Y45.84293
X24.73190 Y45.80226
X24.61567 Y45.79637
X24.42476 Y45.81786
X24.24208 Y45.87729
X24.07510 Y45.97231
X23.93065 Y46.09901
X23.81468 Y46.25220
X23.73193 Y46.42555
X23.68880 Y46.59205
X23.67704 Y46.78379
G04 P0 ( dwell for no time -- G64 should not smooth over this point )
G00 Z3.00000 ( retract )

G00 X23.67704 Y44.24379 ( rapid move to begin. )
F250.00000
G01 Z-0.10000
G04 P0 ( dwell for no time -- G64 should not smooth over this point )
F500.00000
G01 X23.67704 Y44.24379
X23.70411 Y44.43401
X23.76888 Y44.61486
X23.86881 Y44.77900
X23.99967 Y44.91966
X24.15616 Y45.03109
X24.33192 Y45.10874
X24.51968 Y45.14941
X24.63591 Y45.15530
X24.82682 Y45.13381
X25.00949 Y45.07437
X25.17647 Y44.97935
X25.32092 Y44.85266
X25.43690 Y44.69947
X25.51965 Y44.52611
X25.56278 Y44.35962
X25.57454 Y44.16787
X25.54747 Y43.97765
X25.48270 Y43.79680
X25.38277 Y43.63267
X25.25191 Y43.49200
X25.09542 Y43.38057
X24.91965 Y43.30293
X24.73190 Y43.26226
X24.61567 Y43.25637
X24.42476 Y43.27786
X24.24208 Y43.33729
X24.07510 Y43.43231
X23.93065 Y43.55901
X23.81468 Y43.71220
X23.73193 Y43.88555
X23.68880 Y44.05205
X23.67704 Y44.24379
G04 P0 ( dwell for no time -- G64 should not smooth over this point )
G00 Z3.00000 ( retract )

G00 X23.67704 Y41.70379 ( rapid move to begin. )
F250.00000
G01 Z-0.10000
G04 P0 ( dwell for no time -- G64 should not smooth over this point )
F500.00000
G01 X23.67704 Y41.70379
X23.70411 Y41.89401
X23.76888 Y42.07486
X23.86881 Y42.23900
X23.99967 Y42.37966
X24.15616 Y42.49109
X24.33192 Y42.56874
X24.51968 Y42.60941
X24.63591 Y42.61530
X24.82682 Y42.59381
X25.00949 Y42.53437
X25.17647 Y42.43935
X25.32092 Y42.31266
X25.43690 Y42.15947
X25.51965 Y41.98611
X25.56278 Y41.81962
X25.57454 Y41.62787
X25.54747 Y41.43765
X25.48270 Y41.25680
X25.38277 Y41.09267
X25.25191 Y40.95200
X25.09542 Y40.84057
X24.91965 Y40.76293
X24.73190 Y40.72226
X24.61567 Y40.71637
X24.42476 Y40.73786
X24.24208 Y40.79729
X24.07510 Y40.89231
X23.93065 Y41.01901
X23.81468 Y41.17220
X23.73193 Y41.34555
X23.68880 Y41.51205
X23.67704 Y41.70379
G04 P0 ( dwell for no time -- G64 should not smooth over this point )
G00 Z3.00000 ( retract )

G00 X23.67582 Y38.27584 ( rapid move to begin. )
F250.00000
G01 Z-0.10000
G04 P0 ( dwell for no time -- G64 should not smooth over this point )
F500.00000
G01 X23.67582 Y38.27584
X23.67582 Y39.97581
X23.70510 Y40.04652
X23.77582 Y40.07581
X25.47579 Y40.07581
X25.54648 Y40.04652
X25.57579 Y39.97581
X25.57579 Y38.27584
X25.54648 Y38.20515
X25.47579 Y38.17584
X23.77582 Y38.17584
X23.70510 Y38.20515
X23.67582 Y38.27584
G04 P0 ( dwell for no time -- G64 should not smooth over this point )
G00 Z3.00000 ( retract )

G00 X30.16331 Y30.06582 ( rapid move to begin. )
F250.00000
G01 Z-0.10000
G04 P0 ( dwell for no time -- G64 should not smooth over this point )
F500.00000
G01 X30.16331 Y30.06582
X30.18434 Y29.86574
X30.24276 Y29.68413
X30.34710 Y29.50008
X30.47436 Y29.35797
X30.65386 Y29.22754
X30.83846 Y29.14776
X31.03564 Y29.10806
X31.22637 Y29.10862
X31.43298 Y29.15421
X31.60702 Y29.23229
X31.77720 Y29.35797
X31.90445 Y29.50008
X32.00879 Y29.68413
X32.06721 Y29.86574
X32.08827 Y30.06582
X32.06721 Y30.26592
X32.00879 Y30.44753
X31.90445 Y30.63158
X31.77720 Y30.77369
X31.59770 Y30.90412
X31.41309 Y30.98390
X31.21593 Y31.02358
X31.02518 Y31.02304
X30.81858 Y30.97745
X30.64454 Y30.89937
X30.47436 Y30.77369
X30.34710 Y30.63158
X30.24276 Y30.44753
X30.18434 Y30.26592
X30.16331 Y30.06582
G04 P0 ( dwell for no time -- G64 should not smooth over this point )
G00 Z3.00000 ( retract )

G00 X30.16331 Y32.60582 ( rapid move to begin. )
F250.00000
G01 Z-0.10000
G04 P0 ( dwell for no time -- G64 should not smooth over this point )
F500.00000
G01 X30.16331 Y32.60582
X30.18434 Y32.40574
X30.24276 Y32.22413
X30.34710 Y32.04008
X30.47436 Y31.89797
X30.65386 Y31.76754
X30.83846 Y31.68776
X31.03564 Y31.64806
X31.22637 Y31.64862
X31.43298 Y31.69421
X31.60702 Y31.77229
X31.77720 Y31.89797
X31.90445 Y32.04008
X32.00879 Y32.22413
X32.06721 Y32.40574
X32.08827 Y32.60582
X32.06721 Y32.80592
X32.00879 Y32.98753
X31.90445 Y33.17158
X31.77720 Y33.31369
X31.59770 Y33.44412
X31.41309 Y33.52390
X31.21593 Y33.56358
X31.02518 Y33.56304
X30.81858 Y33.51745
X30.64454 Y33.43937
X30.47436 Y33.31369
X30.34710 Y33.17158
X30.24276 Y32.98753
X30.18434 Y32.80592
X30.16331 Y32.60582
G04 P0 ( dwell for no time -- G64 should not smooth over this point )
G00 Z3.00000 ( retract )

G00 X30.16331 Y35.14582 ( rapid move to begin. )
F250.00000
G01 Z-0.10000
G04 P0 ( dwell for no time -- G64 should not smooth over this point )
F500.00000
G01 X30.16331 Y35.14582
X30.18434 Y34.94574
X30.24276 Y34.76413
X30.34710 Y34.58008
X30.47436 Y34.43797
X30.65386 Y34.30754
X30.83846 Y34.22776
X31.03564 Y34.18806
X31.22637 Y34.18862
X31.43298 Y34.23421
X31.60702 Y34.31229
X31.77720 Y34.43797
X31.90445 Y34.58008
X32.00879 Y34.76413
X32.06721 Y34.94574
X32.08827 Y35.14582
X32.06721 Y35.34592
X32.00879 Y35.52753
X31.90445 Y35.71158
X31.77720 Y35.85369
X31.59770 Y35.98412
X31.41309 Y36.06390
X31.21593 Y36.10358
X31.02518 Y36.10304
X30.81858 Y36.05745
X30.64454 Y35.97937
X30.47436 Y35.85369
X30.34710 Y35.71158
X30.24276 Y35.52753
X30.18434 Y35.34592
X30.16331 Y35.14582
G04 P0 ( dwell for no time -- G64 should not smooth over this point )
G00 Z3.00000 ( retract )

G00 X30.16331 Y37.68582 ( rapid move to begin. )
F250.00000
G01 Z-0.10000
G04 P0 ( dwell for no time -- G64 should not smooth over this point )
F500.00000
G01 X30.16331 Y37.68582
X30.18434 Y37.48574
X30.24276 Y37.30413
X30.34710 Y37.12008
X30.47436 Y36.97797
X30.65386 Y36.84754
X30.83846 Y36.76776
X31.03564 Y36.72806
X31.22637 Y36.72862
X31.43298 Y36.77421
X31.60702 Y36.85229
X31.77720 Y36.97797
X31.90445 Y37.12008
X32.00879 Y37.30413
X32.06721 Y37.48574
X32.08827 Y37.68582
X32.06721 Y37.88592
X32.00879 Y38.06753
X31.90445 Y38.25158
X31.77720 Y38.39369
X31.59770 Y38.52412
X31.41309 Y38.60390
X31.21593 Y38.64358
X31.02518 Y38.64304
X30.81858 Y38.59745
X30.64454 Y38.51937
X30.47436 Y38.39369
X30.34710 Y38.25158
X30.24276 Y38.06753
X30.18434 Y37.88592
X30.16331 Y37.68582
G04 P0 ( dwell for no time -- G64 should not smooth over this point )
G00 Z3.00000 ( retract )

G00 X30.16331 Y40.22582 ( rapid move to begin. )
F250.00000
G01 Z-0.10000
G04 P0 ( dwell for no time -- G64 should not smooth over this point )
F500.00000
G01 X30.16331 Y40.22582
X30.18434 Y40.02574
X30.24276 Y39.84413
X30.34710 Y39.66008
X30.47436 Y39.51797
X30.65386 Y39.38754
X30.83846 Y39.30776
X31.03564 Y39.26806
X31.22637 Y39.26862
X31.43298 Y39.31421
X31.60702 Y39.39229
X31.77720 Y39.51797
X31.90445 Y39.66008
X32.00879 Y39.84413
X32.06721 Y40.02574
X32.08827 Y40.22582
X32.06721 Y40.42592
X32.00879 Y40.60753
X31.90445 Y40.79158
X31.77720 Y40.93369
X31.59770 Y41.06412
X31.41309 Y41.14390
X31.21593 Y41.18358
X31.02518 Y41.18304
X30.81858 Y41.13745
X30.64454 Y41.05937
X30.47436 Y40.93369
X30.34710 Y40.79158
X30.24276 Y40.60753
X30.18434 Y40.42592
X30.16331 Y40.22582
G04 P0 ( dwell for no time -- G64 should not smooth over this point )
G00 Z3.00000 ( retract )

G00 X30.16331 Y42.76582 ( rapid move to begin. )
F250.00000
G01 Z-0.10000
G04 P0 ( dwell for no time -- G64 should not smooth over this point )
F500.00000
G01 X30.16331 Y42.76582
X30.18434 Y42.56574
X30.24276 Y42.38413
X30.34710 Y42.20008
X30.47436 Y42.05797
X30.65386 Y41.92754
X30.83846 Y41.84776
X31.03564 Y41.80806
X31.22637 Y41.80862
X31.43298 Y41.85421
X31.60702 Y41.93229
X31.77720 Y42.05797
X31.90445 Y42.20008
X32.00879 Y42.38413
X32.06721 Y42.56574
X32.08827 Y42.76582
X32.06721 Y42.96592
X32.00879 Y43.14753
X31.90445 Y43.33158
X31.77720 Y43.47369
X31.59770 Y43.60412
X31.41309 Y43.68390
X31.21593 Y43.72358
X31.02518 Y43.72304
X30.81858 Y43.67745
X30.64454 Y43.59937
X30.47436 Y43.47369
X30.34710 Y43.33158
X30.24276 Y43.14753
X30.18434 Y42.96592
X30.16331 Y42.76582
G04 P0 ( dwell for no time -- G64 should not smooth over this point )
G00 Z3.00000 ( retract )

G00 X30.16331 Y45.30582 ( rapid move to begin. )
F250.00000
G01 Z-0.10000
G04 P0 ( dwell for no time -- G64 should not smooth over this point )
F500.00000
G01 X30.16331 Y45.30582
X30.18434 Y45.10574
X30.24276 Y44.92413
X30.34710 Y44.74008
X30.47436 Y44.59797
X30.65386 Y44.46754
X30.83846 Y44.38776
X31.03564 Y44.34806
X31.22637 Y44.34862
X31.43298 Y44.39421
X31.60702 Y44.47229
X31.77720 Y44.59797
X31.90445 Y44.74008
X32.00879 Y44.92413
X32.06721 Y45.10574
X32.08827 Y45.30582
X32.06721 Y45.50592
X32.00879 Y45.68753
X31.90445 Y45.87158
X31.77720 Y46.01369
X31.59770 Y46.14412
X31.41309 Y46.22390
X31.21593 Y46.26358
X31.02518 Y46.26304
X30.81858 Y46.21745
X30.64454 Y46.13937
X30.47436 Y46.01369
X30.34710 Y45.87158
X30.24276 Y45.68753
X30.18434 Y45.50592
X30.16331 Y45.30582
G04 P0 ( dwell for no time -- G64 should not smooth over this point )
G00 Z3.00000 ( retract )

G00 X30.16331 Y47.84582 ( rapid move to begin. )
F250.00000
G01 Z-0.10000
G04 P0 ( dwell for no time -- G64 should not smooth over this point )
F500.00000
G01 X30.16331 Y47.84582
X30.18434 Y47.64574
X30.24276 Y47.46413
X30.34710 Y47.28008
X30.47436 Y47.13797
X30.65386 Y47.00754
X30.83846 Y46.92776
X31.03564 Y46.88806
X31.22637 Y46.88862
X31.43298 Y46.93421
X31.60702 Y47.01229
X31.77720 Y47.13797
X31.90445 Y47.28008
X32.00879 Y47.46413
X32.06721 Y47.64574
X32.08827 Y47.84582
X32.06721 Y48.04592
X32.00879 Y48.22753
X31.90445 Y48.41158
X31.77720 Y48.55369
X31.59770 Y48.68412
X31.41309 Y48.76390
X31.21593 Y48.80358
X31.02518 Y48.80304
X30.81858 Y48.75745
X30.64454 Y48.67937
X30.47436 Y48.55369
X30.34710 Y48.41158
X30.24276 Y48.22753
X30.18434 Y48.04592
X30.16331 Y47.84582
G04 P0 ( dwell for no time -- G64 should not smooth over this point )
G00 Z3.00000 ( retract )

G00 X30.16331 Y50.38582 ( rapid move to begin. )
F250.00000
G01 Z-0.10000
G04 P0 ( dwell for no time -- G64 should not smooth over this point )
F500.00000
G01 X30.16331 Y50.38582
X30.18434 Y50.18574
X30.24276 Y50.00413
X30.34710 Y49.82008
X30.47436 Y49.67797
X30.65386 Y49.54754
X30.83846 Y49.46776
X31.03564 Y49.42806
X31.22637 Y49.42862
X31.43298 Y49.47421
X31.60702 Y49.55229
X31.77720 Y49.67797
X31.90445 Y49.82008
X32.00879 Y50.00413
X32.06721 Y50.18574
X32.08827 Y50.38582
X32.06721 Y50.58592
X32.00879 Y50.76753
X31.90445 Y50.95158
X31.77720 Y51.09369
X31.59770 Y51.22412
X31.41309 Y51.30390
X31.21593 Y51.34358
X31.02518 Y51.34304
X30.81858 Y51.29745
X30.64454 Y51.21937
X30.47436 Y51.09369
X30.34710 Y50.95158
X30.24276 Y50.76753
X30.18434 Y50.58592
X30.16331 Y50.38582
G04 P0 ( dwell for no time -- G64 should not smooth over this point )
G00 Z3.00000 ( retract )

G00 X30.16331 Y52.92582 ( rapid move to begin. )
F250.00000
G01 Z-0.10000
G04 P0 ( dwell for no time -- G64 should not smooth over this point )
F500.00000
G01 X30.16331 Y52.92582
X30.18434 Y52.72574
X30.24276 Y52.54413
X30.34710 Y52.36008
X30.47436 Y52.21797
X30.65386 Y52.08754
X30.83846 Y52.00776
X31.03564 Y51.96806
X31.22637 Y51.96862
X31.43298 Y52.01421
X31.60702 Y52.09229
X31.77720 Y52.21797
X31.90445 Y52.36008
X32.00879 Y52.54413
X32.06721 Y52.72574
X32.08827 Y52.92582
X32.06721 Y53.12592
X32.00879 Y53.30753
X31.90445 Y53.49158
X31.77720 Y53.63369
X31.59770 Y53.76412
X31.41309 Y53.84390
X31.21593 Y53.88358
X31.02518 Y53.88304
X30.81858 Y53.83745
X30.64454 Y53.75937
X30.47436 Y53.63369
X30.34710 Y53.49158
X30.24276 Y53.30753
X30.18434 Y53.12592
X30.16331 Y52.92582
G04 P0 ( dwell for no time -- G64 should not smooth over this point )
G00 Z3.00000 ( retract )

G00 X45.40331 Y42.76582 ( rapid move to begin. )
F250.00000
G01 Z-0.10000
G04 P0 ( dwell for no time -- G64 should not smooth over this point )
F500.00000
G01 X45.40331 Y42.76582
X45.42434 Y42.56574
X45.48276 Y42.38413
X45.58710 Y42.20008
X45.71436 Y42.05797
X45.89386 Y41.92754
X46.07846 Y41.84776
X46.27564 Y41.80806
X46.46637 Y41.80862
X46.67298 Y41.85421
X46.84702 Y41.93229
X47.01720 Y42.05797
X47.14445 Y42.20008
X47.24879 Y42.38413
X47.30721 Y42.56574
X47.32827 Y42.76582
X47.30721 Y42.96592
X47.24879 Y43.14753
X47.14445 Y43.33158
X47.01720 Y43.47369
X46.83770 Y43.60412
X46.65309 Y43.68390
X46.45593 Y43.72358
X46.26518 Y43.72304
X46.05858 Y43.67745
X45.88454 Y43.59937
X45.71436 Y43.47369
X45.58710 Y43.33158
X45.48276 Y43.14753
X45.42434 Y42.96592
X45.40331 Y42.76582
G04 P0 ( dwell for no time -- G64 should not smooth over this point )
G00 Z3.00000 ( retract )

G00 X45.40331 Y40.22582 ( rapid move to begin. )
F250.00000
G01 Z-0.10000
G04 P0 ( dwell for no time -- G64 should not smooth over this point )
F500.00000
G01 X45.40331 Y40.22582
X45.42434 Y40.02574
X45.48276 Y39.84413
X45.58710 Y39.66008
X45.71436 Y39.51797
X45.89386 Y39.38754
X46.07846 Y39.30776
X46.27564 Y39.26806
X46.46637 Y39.26862
X46.67298 Y39.31421
X46.84702 Y39.39229
X47.01720 Y39.51797
X47.14445 Y39.66008
X47.24879 Y39.84413
X47.30721 Y40.02574
X47.32827 Y40.22582
X47.30721 Y40.42592
X47.24879 Y40.60753
X47.14445 Y40.79158
X47.01720 Y40.93369
X46.83770 Y41.06412
X46.65309 Y41.14390
X46.45593 Y41.18358
X46.26518 Y41.18304
X46.05858 Y41.13745
X45.88454 Y41.05937
X45.71436 Y40.93369
X45.58710 Y40.79158
X45.48276 Y40.60753
X45.42434 Y40.42592
X45.40331 Y40.22582
G04 P0 ( dwell for no time -- G64 should not smooth over this point )
G00 Z3.00000 ( retract )

G00 X45.40331 Y37.68582 ( rapid move to begin. )
F250.00000
G01 Z-0.10000
G04 P0 ( dwell for no time -- G64 should not smooth over this point )
F500.00000
G01 X45.40331 Y37.68582
X45.42434 Y37.48574
X45.48276 Y37.30413
X45.58710 Y37.12008
X45.71436 Y36.97797
X45.89386 Y36.84754
X46.07846 Y36.76776
X46.27564 Y36.72806
X46.46637 Y36.72862
X46.67298 Y36.77421
X46.84702 Y36.85229
X47.01720 Y36.97797
X47.14445 Y37.12008
X47.24879 Y37.30413
X47.30721 Y37.48574
X47.32827 Y37.68582
X47.30721 Y37.88592
X47.24879 Y38.06753
X47.14445 Y38.25158
X47.01720 Y38.39369
X46.83770 Y38.52412
X46.65309 Y38.60390
X46.45593 Y38.64358
X46.26518 Y38.64304
X46.05858 Y38.59745
X45.88454 Y38.51937
X45.71436 Y38.39369
X45.58710 Y38.25158
X45.48276 Y38.06753
X45.42434 Y37.88592
X45.40331 Y37.68582
G04 P0 ( dwell for no time -- G64 should not smooth over this point )
G00 Z3.00000 ( retract )

G00 X45.40331 Y35.14582 ( rapid move to begin. )
F250.00000
G01 Z-0.10000
G04 P0 ( dwell for no time -- G64 should not smooth over this point )
F500.00000
G01 X45.40331 Y35.14582
X45.42434 Y34.94574
X45.48276 Y34.76413
X45.58710 Y34.58008
X45.71436 Y34.43797
X45.89386 Y34.30754
X46.07846 Y34.22776
X46.27564 Y34.18806
X46.46637 Y34.18862
X46.67298 Y34.23421
X46.84702 Y34.31229
X47.01720 Y34.43797
X47.14445 Y34.58008
X47.24879 Y34.76413
X47.30721 Y34.94574
X47.32827 Y35.14582
X47.30721 Y35.34592
X47.24879 Y35.52753
X47.14445 Y35.71158
X47.01720 Y35.85369
X46.83770 Y35.98412
X46.65309 Y36.06390
X46.45593 Y36.10358
X46.26518 Y36.10304
X46.05858 Y36.05745
X45.88454 Y35.97937
X45.71436 Y35.85369
X45.58710 Y35.71158
X45.48276 Y35.52753
X45.42434 Y35.34592
X45.40331 Y35.14582
G04 P0 ( dwell for no time -- G64 should not smooth over this point )
G00 Z3.00000 ( retract )

G00 X45.40331 Y32.60582 ( rapid move to begin. )
F250.00000
G01 Z-0.10000
G04 P0 ( dwell for no time -- G64 should not smooth over this point )
F500.00000
G01 X45.40331 Y32.60582
X45.42434 Y32.40574
X45.48276 Y32.22413
X45.58710 Y32.04008
X45.71436 Y31.89797
X45.89386 Y31.76754
X46.07846 Y31.68776
X46.27564 Y31.64806
X46.46637 Y31.64862
X46.67298 Y31.69421
X46.84702 Y31.77229
X47.01720 Y31.89797
X47.14445 Y32.04008
X47.24879 Y32.22413
X47.30721 Y32.40574
X47.32827 Y32.60582
X47.30721 Y32.80592
X47.24879 Y32.98753
X47.14445 Y33.17158
X47.01720 Y33.31369
X46.83770 Y33.44412
X46.65309 Y33.52390
X46.45593 Y33.56358
X46.26518 Y33.56304
X46.05858 Y33.51745
X45.88454 Y33.43937
X45.71436 Y33.31369
X45.58710 Y33.17158
X45.48276 Y32.98753
X45.42434 Y32.80592
X45.40331 Y32.60582
G04 P0 ( dwell for no time -- G64 should not smooth over this point )
G00 Z3.00000 ( retract )

G00 X45.40331 Y30.06582 ( rapid move to begin. )
F250.00000
G01 Z-0.10000
G04 P0 ( dwell for no time -- G64 should not smooth over this point )
F500.00000
G01 X45.40331 Y30.06582
X45.42434 Y29.86574
X45.48276 Y29.68413
X45.58710 Y29.50008
X45.71436 Y29.35797
X45.89386 Y29.22754
X46.07846 Y29.14776
X46.27564 Y29.10806
X46.46637 Y29.10862
X46.67298 Y29.15421
X46.84702 Y29.23229
X47.01720 Y29.35797
X47.14445 Y29.50008
X47.24879 Y29.68413
X47.30721 Y29.86574
X47.32827 Y30.06582
X47.30721 Y30.26592
X47.24879 Y30.44753
X47.14445 Y30.63158
X47.01720 Y30.77369
X46.83770 Y30.90412
X46.65309 Y30.98390
X46.45593 Y31.02358
X46.26518 Y31.02304
X46.05858 Y30.97745
X45.88454 Y30.89937
X45.71436 Y30.77369
X45.58710 Y30.63158
X45.48276 Y30.44753
X45.42434 Y30.26592
X45.40331 Y30.06582
G04 P0 ( dwell for no time -- G64 should not smooth over this point )
G00 Z3.00000 ( retract )

G00 X27.17581 Y16.27583 ( rapid move to begin. )
F250.00000
G01 Z-0.10000
G04 P0 ( dwell for no time -- G64 should not smooth over this point )
F500.00000
G01 X27.17581 Y16.27583
X27.17581 Y17.97580
X27.20510 Y18.04651
X27.27581 Y18.07580
X28.97578 Y18.07580
X29.04647 Y18.04651
X29.07578 Y17.97580
X29.07578 Y16.27583
X29.04647 Y16.20514
X28.97578 Y16.17583
X27.27581 Y16.17583
X27.20510 Y16.20514
X27.17581 Y16.27583
G04 P0 ( dwell for no time -- G64 should not smooth over this point )
G00 Z3.00000 ( retract )

G00 X29.71703 Y17.16379 ( rapid move to begin. )
F250.00000
G01 Z-0.10000
G04 P0 ( dwell for no time -- G64 should not smooth over this point )
F500.00000
G01 X29.71703 Y17.16379
X29.74411 Y17.35401
X29.80888 Y17.53486
X29.90880 Y17.69899
X30.03966 Y17.83966
X30.19615 Y17.95109
X30.37192 Y18.02873
X30.55967 Y18.06940
X30.67590 Y18.07529
X30.86681 Y18.05380
X31.04949 Y17.99437
X31.21647 Y17.89935
X31.36092 Y17.77265
X31.47689 Y17.61946
X31.55965 Y17.44611
X31.60278 Y17.27961
X31.61454 Y17.08787
X31.58746 Y16.89765
X31.52269 Y16.71680
X31.42277 Y16.55266
X31.29191 Y16.41200
X31.13542 Y16.30057
X30.95965 Y16.22292
X30.77189 Y16.18225
X30.65566 Y16.17636
X30.46475 Y16.19785
X30.28208 Y16.25729
X30.11510 Y16.35231
X29.97065 Y16.47900
X29.85467 Y16.63219
X29.77192 Y16.80555
X29.72879 Y16.97204
X29.71703 Y17.16379
G04 P0 ( dwell for no time -- G64 should not smooth over this point )
G00 Z3.00000 ( retract )

G00 X32.25703 Y17.16379 ( rapid move to begin. )
F250.00000
G01 Z-0.10000
G04 P0 ( dwell for no time -- G64 should not smooth over this point )
F500.00000
G01 X32.25703 Y17.16379
X32.28411 Y17.35401
X32.34888 Y17.53486
X32.44880 Y17.69899
X32.57966 Y17.83966
X32.73615 Y17.95109
X32.91192 Y18.02873
X33.09967 Y18.06940
X33.21590 Y18.07529
X33.40681 Y18.05380
X33.58949 Y17.99437
X33.75647 Y17.89935
X33.90092 Y17.77265
X34.01689 Y17.61946
X34.09965 Y17.44611
X34.14278 Y17.27961
X34.15454 Y17.08787
X34.12746 Y16.89765
X34.06269 Y16.71680
X33.96277 Y16.55266
X33.83191 Y16.41200
X33.67542 Y16.30057
X33.49965 Y16.22292
X33.31189 Y16.18225
X33.19566 Y16.17636
X33.00475 Y16.19785
X32.82208 Y16.25729
X32.65510 Y16.35231
X32.51065 Y16.47900
X32.39467 Y16.63219
X32.31192 Y16.80555
X32.26879 Y16.97204
X32.25703 Y17.16379
G04 P0 ( dwell for no time -- G64 should not smooth over this point )
G00 Z3.00000 ( retract )

G00 X34.79703 Y17.16379 ( rapid move to begin. )
F250.00000
G01 Z-0.10000
G04 P0 ( dwell for no time -- G64 should not smooth over this point )
F500.00000
G01 X34.79703 Y17.16379
X34.82411 Y17.35401
X34.88888 Y17.53486
X34.98880 Y17.69899
X35.11966 Y17.83966
X35.27615 Y17.95109
X35.45192 Y18.02873
X35.63967 Y18.06940
X35.75590 Y18.07529
X35.94681 Y18.05380
X36.12949 Y17.99437
X36.29647 Y17.89935
X36.44092 Y17.77265
X36.55689 Y17.61946
X36.63965 Y17.44611
X36.68278 Y17.27961
X36.69454 Y17.08787
X36.66746 Y16.89765
X36.60269 Y16.71680
X36.50277 Y16.55266
X36.37191 Y16.41200
X36.21542 Y16.30057
X36.03965 Y16.22292
X35.85189 Y16.18225
X35.73566 Y16.17636
X35.54475 Y16.19785
X35.36208 Y16.25729
X35.19510 Y16.35231
X35.05065 Y16.47900
X34.93467 Y16.63219
X34.85192 Y16.80555
X34.80879 Y16.97204
X34.79703 Y17.16379
G04 P0 ( dwell for no time -- G64 should not smooth over this point )
G00 Z3.00000 ( retract )

G00 X37.33703 Y17.16379 ( rapid move to begin. )
F250.00000
G01 Z-0.10000
G04 P0 ( dwell for no time -- G64 should not smooth over this point )
F500.00000
G01 X37.33703 Y17.16379
X37.36411 Y17.35401
X37.42888 Y17.53486
X37.52880 Y17.69899
X37.65966 Y17.83966
X37.81615 Y17.95109
X37.99192 Y18.02873
X38.17967 Y18.06940
X38.29590 Y18.07529
X38.48681 Y18.05380
X38.66949 Y17.99437
X38.83647 Y17.89935
X38.98092 Y17.77265
X39.09689 Y17.61946
X39.17965 Y17.44611
X39.22278 Y17.27961
X39.23454 Y17.08787
X39.20746 Y16.89765
X39.14269 Y16.71680
X39.04277 Y16.55266
X38.91191 Y16.41200
X38.75542 Y16.30057
X38.57965 Y16.22292
X38.39189 Y16.18225
X38.27566 Y16.17636
X38.08475 Y16.19785
X37.90208 Y16.25729
X37.73510 Y16.35231
X37.59065 Y16.47900
X37.47467 Y16.63219
X37.39192 Y16.80555
X37.34879 Y16.97204
X37.33703 Y17.16379
G04 P0 ( dwell for no time -- G64 should not smooth over this point )
G00 Z3.00000 ( retract )

G00 X39.87703 Y17.16379 ( rapid move to begin. )
F250.00000
G01 Z-0.10000
G04 P0 ( dwell for no time -- G64 should not smooth over this point )
F500.00000
G01 X39.87703 Y17.16379
X39.90411 Y17.35401
X39.96888 Y17.53486
X40.06880 Y17.69899
X40.19966 Y17.83966
X40.35615 Y17.95109
X40.53192 Y18.02873
X40.71967 Y18.06940
X40.83590 Y18.07529
X41.02681 Y18.05380
X41.20949 Y17.99437
X41.37647 Y17.89935
X41.52092 Y17.77265
X41.63689 Y17.61946
X41.71965 Y17.44611
X41.76278 Y17.27961
X41.77454 Y17.08787
X41.74746 Y16.89765
X41.68269 Y16.71680
X41.58277 Y16.55266
X41.45191 Y16.41200
X41.29542 Y16.30057
X41.11965 Y16.22292
X40.93189 Y16.18225
X40.81566 Y16.17636
X40.62475 Y16.19785
X40.44208 Y16.25729
X40.27510 Y16.35231
X40.13065 Y16.47900
X40.01467 Y16.63219
X39.93192 Y16.80555
X39.88879 Y16.97204
X39.87703 Y17.16379
G04 P0 ( dwell for no time -- G64 should not smooth over this point )
G00 Z3.00000 ( retract )

G00 X42.41703 Y17.16379 ( rapid move to begin. )
F250.00000
G01 Z-0.10000
G04 P0 ( dwell for no time -- G64 should not smooth over this point )
F500.00000
G01 X42.41703 Y17.16379
X42.44411 Y17.35401
X42.50888 Y17.53486
X42.60880 Y17.69899
X42.73966 Y17.83966
X42.89615 Y17.95109
X43.07192 Y18.02873
X43.25967 Y18.06940
X43.37590 Y18.07529
X43.56681 Y18.05380
X43.74949 Y17.99437
X43.91647 Y17.89935
X44.06092 Y17.77265
X44.17689 Y17.61946
X44.25965 Y17.44611
X44.30278 Y17.27961
X44.31454 Y17.08787
X44.28746 Y16.89765
X44.22269 Y16.71680
X44.12277 Y16.55266
X43.99191 Y16.41200
X43.83542 Y16.30057
X43.65965 Y16.22292
X43.47189 Y16.18225
X43.35566 Y16.17636
X43.16475 Y16.19785
X42.98208 Y16.25729
X42.81510 Y16.35231
X42.67065 Y16.47900
X42.55467 Y16.63219
X42.47192 Y16.80555
X42.42879 Y16.97204
X42.41703 Y17.16379
G04 P0 ( dwell for no time -- G64 should not smooth over this point )
G00 Z3.00000 ( retract )

G00 X44.95703 Y17.16379 ( rapid move to begin. )
F250.00000
G01 Z-0.10000
G04 P0 ( dwell for no time -- G64 should not smooth over this point )
F500.00000
G01 X44.95703 Y17.16379
X44.98411 Y17.35401
X45.04888 Y17.53486
X45.14880 Y17.69899
X45.27966 Y17.83966
X45.43615 Y17.95109
X45.61192 Y18.02873
X45.79967 Y18.06940
X45.91590 Y18.07529
X46.10681 Y18.05380
X46.28949 Y17.99437
X46.45647 Y17.89935
X46.60092 Y17.77265
X46.71689 Y17.61946
X46.79965 Y17.44611
X46.84278 Y17.27961
X46.85454 Y17.08787
X46.82746 Y16.89765
X46.76269 Y16.71680
X46.66277 Y16.55266
X46.53191 Y16.41200
X46.37542 Y16.30057
X46.19965 Y16.22292
X46.01189 Y16.18225
X45.89566 Y16.17636
X45.70475 Y16.19785
X45.52208 Y16.25729
X45.35510 Y16.35231
X45.21065 Y16.47900
X45.09467 Y16.63219
X45.01192 Y16.80555
X44.96879 Y16.97204
X44.95703 Y17.16379
G04 P0 ( dwell for no time -- G64 should not smooth over this point )
G00 Z3.00000 ( retract )

G00 X56.67580 Y6.27582 ( rapid move to begin. )
F250.00000
G01 Z-0.10000
G04 P0 ( dwell for no time -- G64 should not smooth over this point )
F500.00000
G01 X56.67580 Y6.27582
X56.67580 Y7.97579
X56.70509 Y8.04651
X56.77580 Y8.07579
X58.47577 Y8.07579
X58.54646 Y8.04651
X58.57577 Y7.97579
X58.57577 Y6.27582
X58.54646 Y6.20513
X58.47577 Y6.17582
X56.77580 Y6.17582
X56.70509 Y6.20513
X56.67580 Y6.27582
G04 P0 ( dwell for no time -- G64 should not smooth over this point )
G00 Z3.00000 ( retract )

G00 X59.21702 Y7.16378 ( rapid move to begin. )
F250.00000
G01 Z-0.10000
G04 P0 ( dwell for no time -- G64 should not smooth over this point )
F500.00000
G01 X59.21702 Y7.16378
X59.24410 Y7.35400
X59.30887 Y7.53485
X59.40879 Y7.69898
X59.53965 Y7.83965
X59.69614 Y7.95108
X59.87191 Y8.02873
X60.05967 Y8.06939
X60.17590 Y8.07529
X60.36680 Y8.05380
X60.54948 Y7.99436
X60.71646 Y7.89934
X60.86091 Y7.77264
X60.97689 Y7.61946
X61.05964 Y7.44610
X61.10277 Y7.27961
X61.11453 Y7.08786
X61.08745 Y6.89764
X61.02268 Y6.71679
X60.92276 Y6.55266
X60.79190 Y6.41199
X60.63541 Y6.30056
X60.45964 Y6.22291
X60.27188 Y6.18225
X60.15565 Y6.17636
X59.96475 Y6.19784
X59.78207 Y6.25728
X59.61509 Y6.35230
X59.47064 Y6.47900
X59.35466 Y6.63218
X59.27191 Y6.80554
X59.22878 Y6.97204
X59.21702 Y7.16378
G04 P0 ( dwell for no time -- G64 should not smooth over this point )
G00 Z3.00000 ( retract )

G00 X61.75702 Y7.16378 ( rapid move to begin. )
F250.00000
G01 Z-0.10000
G04 P0 ( dwell for no time -- G64 should not smooth over this point )
F500.00000
G01 X61.75702 Y7.16378
X61.78410 Y7.35400
X61.84887 Y7.53485
X61.94879 Y7.69898
X62.07965 Y7.83965
X62.23614 Y7.95108
X62.41191 Y8.02873
X62.59967 Y8.06939
X62.71590 Y8.07529
X62.90680 Y8.05380
X63.08948 Y7.99436
X63.25646 Y7.89934
X63.40091 Y7.77264
X63.51689 Y7.61946
X63.59964 Y7.44610
X63.64277 Y7.27961
X63.65453 Y7.08786
X63.62745 Y6.89764
X63.56268 Y6.71679
X63.46276 Y6.55266
X63.33190 Y6.41199
X63.17541 Y6.30056
X62.99964 Y6.22291
X62.81188 Y6.18225
X62.69565 Y6.17636
X62.50475 Y6.19784
X62.32207 Y6.25728
X62.15509 Y6.35230
X62.01064 Y6.47900
X61.89466 Y6.63218
X61.81191 Y6.80554
X61.76878 Y6.97204
X61.75702 Y7.16378
G04 P0 ( dwell for no time -- G64 should not smooth over this point )
G00 Z3.00000 ( retract )

G00 X66.09702 Y7.16378 ( rapid move to begin. )
F250.00000
G01 Z-0.10000
G04 P0 ( dwell for no time -- G64 should not smooth over this point )
F500.00000
G01 X66.09702 Y7.16378
X66.12409 Y7.35400
X66.18886 Y7.53485
X66.28879 Y7.69898
X66.41965 Y7.83965
X66.57614 Y7.95108
X66.75191 Y8.02873
X66.93966 Y8.06939
X67.05589 Y8.07529
X67.24680 Y8.05380
X67.42948 Y7.99436
X67.59646 Y7.89934
X67.74091 Y7.77264
X67.85688 Y7.61946
X67.93963 Y7.44610
X67.98276 Y7.27961
X67.99452 Y7.08786
X67.96745 Y6.89764
X67.90268 Y6.71679
X67.80275 Y6.55266
X67.67189 Y6.41199
X67.51540 Y6.30056
X67.33964 Y6.22291
X67.15188 Y6.18225
X67.03565 Y6.17636
X66.84474 Y6.19784
X66.66207 Y6.25728
X66.49509 Y6.35230
X66.35064 Y6.47900
X66.23466 Y6.63218
X66.15191 Y6.80554
X66.10878 Y6.97204
X66.09702 Y7.16378
G04 P0 ( dwell for no time -- G64 should not smooth over this point )
G00 Z3.00000 ( retract )

G00 X68.63702 Y7.16378 ( rapid move to begin. )
F250.00000
G01 Z-0.10000
G04 P0 ( dwell for no time -- G64 should not smooth over this point )
F500.00000
G01 X68.63702 Y7.16378
X68.66409 Y7.35400
X68.72886 Y7.53485
X68.82879 Y7.69898
X68.95965 Y7.83965
X69.11614 Y7.95108
X69.29191 Y8.02873
X69.47966 Y8.06939
X69.59589 Y8.07529
X69.78680 Y8.05380
X69.96948 Y7.99436
X70.13646 Y7.89934
X70.28091 Y7.77264
X70.39688 Y7.61946
X70.47963 Y7.44610
X70.52276 Y7.27961
X70.53452 Y7.08786
X70.50745 Y6.89764
X70.44268 Y6.71679
X70.34275 Y6.55266
X70.21189 Y6.41199
X70.05540 Y6.30056
X69.87964 Y6.22291
X69.69188 Y6.18225
X69.57565 Y6.17636
X69.38474 Y6.19784
X69.20207 Y6.25728
X69.03509 Y6.35230
X68.89064 Y6.47900
X68.77466 Y6.63218
X68.69191 Y6.80554
X68.64878 Y6.97204
X68.63702 Y7.16378
G04 P0 ( dwell for no time -- G64 should not smooth over this point )
G00 Z3.00000 ( retract )

G00 X71.17580 Y6.27582 ( rapid move to begin. )
F250.00000
G01 Z-0.10000
G04 P0 ( dwell for no time -- G64 should not smooth over this point )
F500.00000
G01 X71.17580 Y6.27582
X71.17580 Y7.97579
X71.20508 Y8.04651
X71.27580 Y8.07579
X72.97577 Y8.07579
X73.04646 Y8.04651
X73.07577 Y7.97579
X73.07577 Y6.27582
X73.04646 Y6.20513
X72.97577 Y6.17582
X71.27580 Y6.17582
X71.20508 Y6.20513
X71.17580 Y6.27582
G04 P0 ( dwell for no time -- G64 should not smooth over this point )
G00 Z3.00000 ( retract )

G00 X64.17581 Y18.77582 ( rapid move to begin. )
F250.00000
G01 Z-0.10000
G04 P0 ( dwell for no time -- G64 should not smooth over this point )
F500.00000
G01 X64.17581 Y18.77582
X64.17581 Y20.47579
X64.20510 Y20.54651
X64.27581 Y20.57579
X65.97578 Y20.57579
X66.04647 Y20.54651
X66.07578 Y20.47579
X66.07578 Y18.77582
X66.04647 Y18.70514
X65.97578 Y18.67582
X64.27581 Y18.67582
X64.20510 Y18.70514
X64.17581 Y18.77582
G04 P0 ( dwell for no time -- G64 should not smooth over this point )
G00 Z3.00000 ( retract )

G00 X64.17703 Y22.20378 ( rapid move to begin. )
F250.00000
G01 Z-0.10000
G04 P0 ( dwell for no time -- G64 should not smooth over this point )
F500.00000
G01 X64.17703 Y22.20378
X64.20411 Y22.39400
X64.26888 Y22.57485
X64.36880 Y22.73899
X64.49966 Y22.87965
X64.65615 Y22.99108
X64.83192 Y23.06873
X65.01968 Y23.10939
X65.13591 Y23.11529
X65.32681 Y23.09380
X65.50949 Y23.03436
X65.67647 Y22.93934
X65.82092 Y22.81265
X65.93690 Y22.65946
X66.01965 Y22.48610
X66.06278 Y22.31961
X66.07454 Y22.12786
X66.04746 Y21.93764
X65.98269 Y21.75679
X65.88277 Y21.59266
X65.75191 Y21.45199
X65.59542 Y21.34056
X65.41965 Y21.26292
X65.23189 Y21.22225
X65.11566 Y21.21636
X64.92476 Y21.23785
X64.74208 Y21.29728
X64.57510 Y21.39230
X64.43065 Y21.51900
X64.31467 Y21.67219
X64.23192 Y21.84554
X64.18879 Y22.01204
X64.17703 Y22.20378
G04 P0 ( dwell for no time -- G64 should not smooth over this point )
G00 Z3.00000 ( retract )

G00 X66.26580 Y28.36582 ( rapid move to begin. )
F250.00000
G01 Z-0.10000
G04 P0 ( dwell for no time -- G64 should not smooth over this point )
F500.00000
G01 X66.26580 Y28.36582
X66.26580 Y29.88581
X66.29509 Y29.95652
X66.36580 Y29.98581
X67.88579 Y29.98581
X67.95647 Y29.95652
X67.98579 Y29.88581
X67.98579 Y28.36582
X67.95647 Y28.29513
X67.88579 Y28.26582
X66.36580 Y28.26582
X66.29509 Y28.29513
X66.26580 Y28.36582
G04 P0 ( dwell for no time -- G64 should not smooth over this point )
G00 Z3.00000 ( retract )

G00 X63.72580 Y29.12582 ( rapid move to begin. )
F250.00000
G01 Z-0.10000
G04 P0 ( dwell for no time -- G64 should not smooth over this point )
F500.00000
G01 X63.72580 Y29.12582
X63.74295 Y28.95739
X63.79639 Y28.78584
X63.89004 Y28.62033
X64.00294 Y28.49414
X64.16512 Y28.37631
X64.33014 Y28.30524
X64.50637 Y28.26999
X64.67566 Y28.27055
X64.86131 Y28.31169
X65.01576 Y28.38106
X65.16123 Y28.48675
X65.28152 Y28.62033
X65.37517 Y28.78584
X65.42862 Y28.95739
X65.44579 Y29.12582
X65.42862 Y29.29427
X65.37517 Y29.46582
X65.28152 Y29.63133
X65.16862 Y29.75751
X65.00644 Y29.87534
X64.84142 Y29.94641
X64.66522 Y29.98164
X64.49590 Y29.98111
X64.31025 Y29.93996
X64.15580 Y29.87059
X64.01033 Y29.76490
X63.89004 Y29.63133
X63.79639 Y29.46582
X63.74295 Y29.29427
X63.72580 Y29.12582
G04 P0 ( dwell for no time -- G64 should not smooth over this point )
G00 Z3.00000 ( retract )

G00 X61.18580 Y29.12582 ( rapid move to begin. )
F250.00000
G01 Z-0.10000
G04 P0 ( dwell for no time -- G64 should not smooth over this point )
F500.00000
G01 X61.18580 Y29.12582
X61.20295 Y28.95739
X61.25639 Y28.78584
X61.35004 Y28.62033
X61.46294 Y28.49414
X61.62512 Y28.37631
X61.79014 Y28.30524
X61.96637 Y28.26999
X62.13566 Y28.27055
X62.32131 Y28.31169
X62.47576 Y28.38106
X62.62123 Y28.48675
X62.74152 Y28.62033
X62.83517 Y28.78584
X62.88862 Y28.95739
X62.90579 Y29.12582
X62.88862 Y29.29427
X62.83517 Y29.46582
X62.74152 Y29.63133
X62.62862 Y29.75751
X62.46644 Y29.87534
X62.30142 Y29.94641
X62.12522 Y29.98164
X61.95590 Y29.98111
X61.77025 Y29.93996
X61.61580 Y29.87059
X61.47033 Y29.76490
X61.35004 Y29.63133
X61.25639 Y29.46582
X61.20295 Y29.29427
X61.18580 Y29.12582
G04 P0 ( dwell for no time -- G64 should not smooth over this point )
G00 Z3.00000 ( retract )

G00 X45.40331 Y45.30582 ( rapid move to begin. )
F250.00000
G01 Z-0.10000
G04 P0 ( dwell for no time -- G64 should not smooth over this point )
F500.00000
G01 X45.40331 Y45.30582
X45.42434 Y45.10574
X45.48276 Y44.92413
X45.58710 Y44.74008
X45.71436 Y44.59797
X45.89386 Y44.46754
X46.07846 Y44.38776
X46.27564 Y44.34806
X46.46637 Y44.34862
X46.67298 Y44.39421
X46.84702 Y44.47229
X47.01720 Y44.59797
X47.14445 Y44.74008
X47.24879 Y44.92413
X47.30721 Y45.10574
X47.32827 Y45.30582
X47.30721 Y45.50592
X47.24879 Y45.68753
X47.14445 Y45.87158
X47.01720 Y46.01369
X46.83770 Y46.14412
X46.65309 Y46.22390
X46.45593 Y46.26358
X46.26518 Y46.26304
X46.05858 Y46.21745
X45.88454 Y46.13937
X45.71436 Y46.01369
X45.58710 Y45.87158
X45.48276 Y45.68753
X45.42434 Y45.50592
X45.40331 Y45.30582
G04 P0 ( dwell for no time -- G64 should not smooth over this point )
G00 Z3.00000 ( retract )

G00 X45.40331 Y47.84582 ( rapid move to begin. )
F250.00000
G01 Z-0.10000
G04 P0 ( dwell for no time -- G64 should not smooth over this point )
F500.00000
G01 X45.40331 Y47.84582
X45.42434 Y47.64574
X45.48276 Y47.46413
X45.58710 Y47.28008
X45.71436 Y47.13797
X45.89386 Y47.00754
X46.07846 Y46.92776
X46.27564 Y46.88806
X46.46637 Y46.88862
X46.67298 Y46.93421
X46.84702 Y47.01229
X47.01720 Y47.13797
X47.14445 Y47.28008
X47.24879 Y47.46413
X47.30721 Y47.64574
X47.32827 Y47.84582
X47.30721 Y48.04592
X47.24879 Y48.22753
X47.14445 Y48.41158
X47.01720 Y48.55369
X46.83770 Y48.68412
X46.65309 Y48.76390
X46.45593 Y48.80358
X46.26518 Y48.80304
X46.05858 Y48.75745
X45.88454 Y48.67937
X45.71436 Y48.55369
X45.58710 Y48.41158
X45.48276 Y48.22753
X45.42434 Y48.04592
X45.40331 Y47.84582
G04 P0 ( dwell for no time -- G64 should not smooth over this point )
G00 Z3.00000 ( retract )

G00 X45.40331 Y50.38582 ( rapid move to begin. )
F250.00000
G01 Z-0.10000
G04 P0 ( dwell for no time -- G64 should not smooth over this point )
F500.00000
G01 X45.40331 Y50.38582
X45.42434 Y50.18574
X45.48276 Y50.00413
X45.58710 Y49.82008
X45.71436 Y49.67797
X45.89386 Y49.54754
X46.07846 Y49.46776
X46.27564 Y49.42806
X46.46637 Y49.42862
X46.67298 Y49.47421
X46.84702 Y49.55229
X47.01720 Y49.67797
X47.14445 Y49.82008
X47.24879 Y50.00413
X47.30721 Y50.18574
X47.32827 Y50.38582
X47.30721 Y50.58592
X47.24879 Y50.76753
X47.14445 Y50.95158
X47.01720 Y51.09369
X46.83770 Y51.22412
X46.65309 Y51.30390
X46.45593 Y51.34358
X46.26518 Y51.34304
X46.05858 Y51.29745
X45.88454 Y51.21937
X45.71436 Y51.09369
X45.58710 Y50.95158
X45.48276 Y50.76753
X45.42434 Y50.58592
X45.40331 Y50.38582
G04 P0 ( dwell for no time -- G64 should not smooth over this point )
G00 Z3.00000 ( retract )

G00 X45.40331 Y52.92582 ( rapid move to begin. )
F250.00000
G01 Z-0.10000
G04 P0 ( dwell for no time -- G64 should not smooth over this point )
F500.00000
G01 X45.40331 Y52.92582
X45.42434 Y52.72574
X45.48276 Y52.54413
X45.58710 Y52.36008
X45.71436 Y52.21797
X45.89386 Y52.08754
X46.07846 Y52.00776
X46.27564 Y51.96806
X46.46637 Y51.96862
X46.67298 Y52.01421
X46.84702 Y52.09229
X47.01720 Y52.21797
X47.14445 Y52.36008
X47.24879 Y52.54413
X47.30721 Y52.72574
X47.32827 Y52.92582
X47.30721 Y53.12592
X47.24879 Y53.30753
X47.14445 Y53.49158
X47.01720 Y53.63369
X46.83770 Y53.76412
X46.65309 Y53.84390
X46.45593 Y53.88358
X46.26518 Y53.88304
X46.05858 Y53.83745
X45.88454 Y53.75937
X45.71436 Y53.63369
X45.58710 Y53.49158
X45.48276 Y53.30753
X45.42434 Y53.12592
X45.40331 Y52.92582
G04 P0 ( dwell for no time -- G64 should not smooth over this point )
G00 Z3.00000 ( retract )

G00 X45.40331 Y55.46582 ( rapid move to begin. )
F250.00000
G01 Z-0.10000
G04 P0 ( dwell for no time -- G64 should not smooth over this point )
F500.00000
G01 X45.40331 Y55.46582
X45.42434 Y55.26574
X45.48276 Y55.08413
X45.58710 Y54.90008
X45.71436 Y54.75797
X45.89386 Y54.62754
X46.07846 Y54.54776
X46.27564 Y54.50806
X46.46637 Y54.50862
X46.67298 Y54.55421
X46.84702 Y54.63229
X47.01720 Y54.75797
X47.14445 Y54.90008
X47.24879 Y55.08413
X47.30721 Y55.26574
X47.32827 Y55.46582
X47.30721 Y55.66592
X47.24879 Y55.84753
X47.14445 Y56.03158
X47.01720 Y56.17369
X46.83770 Y56.30412
X46.65309 Y56.38390
X46.45593 Y56.42358
X46.26518 Y56.42304
X46.05858 Y56.37745
X45.88454 Y56.29937
X45.71436 Y56.17369
X45.58710 Y56.03158
X45.48276 Y55.84753
X45.42434 Y55.66592
X45.40331 Y55.46582
G04 P0 ( dwell for no time -- G64 should not smooth over this point )
G00 Z3.00000 ( retract )

G00 X45.40331 Y58.00582 ( rapid move to begin. )
F250.00000
G01 Z-0.10000
G04 P0 ( dwell for no time -- G64 should not smooth over this point )
F500.00000
G01 X45.40331 Y58.00582
X45.42434 Y57.80574
X45.48276 Y57.62413
X45.58710 Y57.44008
X45.71436 Y57.29797
X45.89386 Y57.16754
X46.07846 Y57.08776
X46.27564 Y57.04806
X46.46637 Y57.04862
X46.67298 Y57.09421
X46.84702 Y57.17229
X47.01720 Y57.29797
X47.14445 Y57.44008
X47.24879 Y57.62413
X47.30721 Y57.80574
X47.32827 Y58.00582
X47.30721 Y58.20592
X47.24879 Y58.38753
X47.14445 Y58.57158
X47.01720 Y58.71369
X46.83770 Y58.84412
X46.65309 Y58.92390
X46.45593 Y58.96358
X46.26518 Y58.96304
X46.05858 Y58.91745
X45.88454 Y58.83937
X45.71436 Y58.71369
X45.58710 Y58.57158
X45.48276 Y58.38753
X45.42434 Y58.20592
X45.40331 Y58.00582
G04 P0 ( dwell for no time -- G64 should not smooth over this point )
G00 Z3.00000 ( retract )

G00 X45.40331 Y60.54582 ( rapid move to begin. )
F250.00000
G01 Z-0.10000
G04 P0 ( dwell for no time -- G64 should not smooth over this point )
F500.00000
G01 X45.40331 Y60.54582
X45.42434 Y60.34574
X45.48276 Y60.16413
X45.58710 Y59.98008
X45.71436 Y59.83797
X45.89386 Y59.70754
X46.07846 Y59.62776
X46.27564 Y59.58806
X46.46637 Y59.58862
X46.67298 Y59.63421
X46.84702 Y59.71229
X47.01720 Y59.83797
X47.14445 Y59.98008
X47.24879 Y60.16413
X47.30721 Y60.34574
X47.32827 Y60.54582
X47.30721 Y60.74592
X47.24879 Y60.92753
X47.14445 Y61.11158
X47.01720 Y61.25369
X46.83770 Y61.38412
X46.65309 Y61.46390
X46.45593 Y61.50358
X46.26518 Y61.50304
X46.05858 Y61.45745
X45.88454 Y61.37937
X45.71436 Y61.25369
X45.58710 Y61.11158
X45.48276 Y60.92753
X45.42434 Y60.74592
X45.40331 Y60.54582
G04 P0 ( dwell for no time -- G64 should not smooth over this point )
G00 Z3.00000 ( retract )

G00 X45.40331 Y63.08582 ( rapid move to begin. )
F250.00000
G01 Z-0.10000
G04 P0 ( dwell for no time -- G64 should not smooth over this point )
F500.00000
G01 X45.40331 Y63.08582
X45.42434 Y62.88574
X45.48276 Y62.70413
X45.58710 Y62.52008
X45.71436 Y62.37797
X45.89386 Y62.24754
X46.07846 Y62.16776
X46.27564 Y62.12806
X46.46637 Y62.12862
X46.67298 Y62.17421
X46.84702 Y62.25229
X47.01720 Y62.37797
X47.14445 Y62.52008
X47.24879 Y62.70413
X47.30721 Y62.88574
X47.32827 Y63.08582
X47.30721 Y63.28592
X47.24879 Y63.46753
X47.14445 Y63.65158
X47.01720 Y63.79369
X46.83770 Y63.92412
X46.65309 Y64.00390
X46.45593 Y64.04358
X46.26518 Y64.04304
X46.05858 Y63.99745
X45.88454 Y63.91937
X45.71436 Y63.79369
X45.58710 Y63.65158
X45.48276 Y63.46753
X45.42434 Y63.28592
X45.40331 Y63.08582
G04 P0 ( dwell for no time -- G64 should not smooth over this point )
G00 Z3.00000 ( retract )

G00 X45.40331 Y65.62582 ( rapid move to begin. )
F250.00000
G01 Z-0.10000
G04 P0 ( dwell for no time -- G64 should not smooth over this point )
F500.00000
G01 X45.40331 Y65.62582
X45.42434 Y65.42574
X45.48276 Y65.24413
X45.58710 Y65.06008
X45.71436 Y64.91797
X45.89386 Y64.78754
X46.07846 Y64.70776
X46.27564 Y64.66806
X46.46637 Y64.66862
X46.67298 Y64.71421
X46.84702 Y64.79229
X47.01720 Y64.91797
X47.14445 Y65.06008
X47.24879 Y65.24413
X47.30721 Y65.42574
X47.32827 Y65.62582
X47.30721 Y65.82592
X47.24879 Y66.00753
X47.14445 Y66.19158
X47.01720 Y66.33369
X46.83770 Y66.46412
X46.65309 Y66.54390
X46.45593 Y66.58358
X46.26518 Y66.58304
X46.05858 Y66.53745
X45.88454 Y66.45937
X45.71436 Y66.33369
X45.58710 Y66.19158
X45.48276 Y66.00753
X45.42434 Y65.82592
X45.40331 Y65.62582
G04 P0 ( dwell for no time -- G64 should not smooth over this point )
G00 Z3.00000 ( retract )

G00 X65.15082 Y54.75083 ( rapid move to begin. )
F250.00000
G01 Z-0.10000
G04 P0 ( dwell for no time -- G64 should not smooth over this point )
F500.00000
G01 X65.15082 Y54.75083
X65.15082 Y56.50079
X65.18010 Y56.57151
X65.25082 Y56.60079
X67.00077 Y56.60079
X67.07146 Y56.57151
X67.10077 Y56.50079
X67.10077 Y54.75083
X67.07146 Y54.68015
X67.00077 Y54.65083
X65.25082 Y54.65083
X65.18010 Y54.68015
X65.15082 Y54.75083
G04 P0 ( dwell for no time -- G64 should not smooth over this point )
G00 Z3.00000 ( retract )

G00 X65.15082 Y58.12581 ( rapid move to begin. )
F250.00000
G01 Z-0.10000
G04 P0 ( dwell for no time -- G64 should not smooth over this point )
F500.00000
G01 X65.15082 Y58.12581
X65.17482 Y57.91301
X65.23509 Y57.72926
X65.33131 Y57.56152
X65.46600 Y57.40866
X65.64761 Y57.27671
X65.82450 Y57.19856
X66.03436 Y57.15563
X66.23801 Y57.15781
X66.42706 Y57.19856
X66.61327 Y57.28146
X66.78556 Y57.40866
X66.92026 Y57.56152
X67.01647 Y57.72926
X67.07675 Y57.91301
X67.10077 Y58.12581
X67.07675 Y58.33863
X67.01647 Y58.52238
X66.92026 Y58.69012
X66.78556 Y58.84298
X66.61327 Y58.97018
X66.43684 Y59.04933
X66.21724 Y59.09599
X66.01355 Y59.09383
X65.82450 Y59.05309
X65.63829 Y58.97018
X65.46600 Y58.84298
X65.33131 Y58.69012
X65.23509 Y58.52238
X65.17482 Y58.33863
X65.15082 Y58.12581
G04 P0 ( dwell for no time -- G64 should not smooth over this point )
G00 Z3.00000 ( retract )

G00 X65.15082 Y60.62580 ( rapid move to begin. )
F250.00000
G01 Z-0.10000
G04 P0 ( dwell for no time -- G64 should not smooth over this point )
F500.00000
G01 X65.15082 Y60.62580
X65.17482 Y60.41300
X65.23509 Y60.22926
X65.33131 Y60.06152
X65.46600 Y59.90866
X65.64761 Y59.77671
X65.82450 Y59.69855
X66.03436 Y59.65562
X66.23801 Y59.65781
X66.42706 Y59.69855
X66.61327 Y59.78146
X66.78556 Y59.90866
X66.92026 Y60.06152
X67.01647 Y60.22926
X67.07675 Y60.41300
X67.10077 Y60.62580
X67.07675 Y60.83863
X67.01647 Y61.02237
X66.92026 Y61.19011
X66.78556 Y61.34297
X66.61327 Y61.47018
X66.43684 Y61.54932
X66.21724 Y61.59598
X66.01355 Y61.59382
X65.82450 Y61.55308
X65.63829 Y61.47018
X65.46600 Y61.34297
X65.33131 Y61.19011
X65.23509 Y61.02237
X65.17482 Y60.83863
X65.15082 Y60.62580
G04 P0 ( dwell for no time -- G64 should not smooth over this point )
G00 Z3.00000 ( retract )

G00 X65.15082 Y63.12580 ( rapid move to begin. )
F250.00000
G01 Z-0.10000
G04 P0 ( dwell for no time -- G64 should not smooth over this point )
F500.00000
G01 X65.15082 Y63.12580
X65.17482 Y62.91300
X65.23509 Y62.72925
X65.33131 Y62.56151
X65.46600 Y62.40865
X65.64761 Y62.27670
X65.82450 Y62.19855
X66.03436 Y62.15562
X66.23801 Y62.15780
X66.42706 Y62.19855
X66.61327 Y62.28145
X66.78556 Y62.40865
X66.92026 Y62.56151
X67.01647 Y62.72925
X67.07675 Y62.91300
X67.10077 Y63.12580
X67.07675 Y63.33862
X67.01647 Y63.52237
X66.92026 Y63.69011
X66.78556 Y63.84297
X66.61327 Y63.97017
X66.43684 Y64.04932
X66.21724 Y64.09598
X66.01355 Y64.09382
X65.82450 Y64.05308
X65.63829 Y63.97017
X65.46600 Y63.84297
X65.33131 Y63.69011
X65.23509 Y63.52237
X65.17482 Y63.33862
X65.15082 Y63.12580

o1 endsub

o1 call
G92 X[#5420-[77.251604]]
o1 call
G92 X[#5420-[77.251604]]
o1 call
G92 Y[#5421-[77.251597]]
o1 call
G92 X[#5420-[-77.251604]]
o1 call
G92 X[#5420-[-77.251604]]
o1 call
G92 Y[#5421-[-77.251597]]

G04 P0 ( dwell for no time -- G64 should not smooth over this point )
G00 Z50.000 ( retract )

M5 ( Spindle off. )
G04 P2.000000
M9 ( Coolant off. )
M2 ( Program end. )

